; EXECUTABLE_BLOCK_START
M73 P0 R27
M201 X12000 Y12000 Z1500 E5000
M203 X500 Y500 Z30 E30
M204 P12000 R5000 T12000
M205 X9.00 Y9.00 Z3.00 E3.00
; FEATURE: Custom
;===== machine: A1 =========================
;===== date: 20240620 =====================
G392 S0
M9833.2
;M400
;M73 P1.717

;===== start to heat heatbead&hotend==========
M1002 gcode_claim_action : 2
M1002 set_filament_type:PLA
M104 S140
M140 S65

;=====start printer sound ===================
M17
M400 S1
M1006 S1
M1006 A0 B10 L100 C37 D10 M60 E37 F10 N60
M1006 A0 B10 L100 C41 D10 M60 E41 F10 N60
M1006 A0 B10 L100 C44 D10 M60 E44 F10 N60
M1006 A0 B10 L100 C0 D10 M60 E0 F10 N60
M1006 A43 B10 L100 C46 D10 M70 E39 F10 N80
M1006 A0 B10 L100 C0 D10 M60 E0 F10 N80
M1006 A0 B10 L100 C43 D10 M60 E39 F10 N80
M1006 A0 B10 L100 C0 D10 M60 E0 F10 N80
M1006 A0 B10 L100 C41 D10 M80 E41 F10 N80
M1006 A0 B10 L100 C44 D10 M80 E44 F10 N80
M1006 A0 B10 L100 C49 D10 M80 E49 F10 N80
M1006 A0 B10 L100 C0 D10 M80 E0 F10 N80
M1006 A44 B10 L100 C48 D10 M60 E39 F10 N80
M1006 A0 B10 L100 C0 D10 M60 E0 F10 N80
M1006 A0 B10 L100 C44 D10 M80 E39 F10 N80
M1006 A0 B10 L100 C0 D10 M60 E0 F10 N80
M1006 A43 B10 L100 C46 D10 M60 E39 F10 N80
M1006 W
M18 
;=====start printer sound ===================

;=====avoid end stop =================
G91
G380 S2 Z40 F1200
G380 S3 Z-15 F1200
G90

;===== reset machine status =================
;M290 X39 Y39 Z8
M204 S6000

M630 S0 P0
G91
M17 Z0.3 ; lower the z-motor current

G90
M17 X0.65 Y1.2 Z0.6 ; reset motor current to default
M960 S5 P1 ; turn on logo lamp
G90
M220 S100 ;Reset Feedrate
M221 S100 ;Reset Flowrate
M73.2   R1.0 ;Reset left time magnitude
;M211 X0 Y0 Z0 ; turn off soft endstop to prevent protential logic problem

;====== cog noise reduction=================
M982.2 S1 ; turn on cog noise reduction

M1002 gcode_claim_action : 13

G28 X
G91
G1 Z5 F1200
G90
G0 X128 F30000
G0 Y254 F3000
G91
G1 Z-5 F1200

M109 S25 H140

M17 E0.3
M83
G1 E10 F1200
G1 E-0.5 F30
M17 D

G28 Z P0 T140; home z with low precision,permit 300deg temperature
M104 S220

M1002 judge_flag build_plate_detect_flag
M622 S1
  G39.4
  G90
  G1 Z5 F1200
M623

;M400
;M73 P1.717

;===== prepare print temperature and material ==========
M1002 gcode_claim_action : 24

M400
;G392 S1
M211 X0 Y0 Z0 ;turn off soft endstop
M975 S1 ; turn on

G90
G1 X-28.5 F30000
G1 X-48.2 F3000

M620 M ;enable remap
M620 S0A   ; switch material if AMS exist
    M1002 gcode_claim_action : 4
    M400
    M1002 set_filament_type:UNKNOWN
    M109 S220
    M104 S250
    M400
    T0
    G1 X-48.2 F3000
    M400

    M620.1 E F548.788 T240
    M109 S250 ;set nozzle to common flush temp
    M106 P1 S0
    G92 E0
    G1 E50 F200
    M400
    M1002 set_filament_type:PLA
M621 S0A

M109 S240 H300
G92 E0
G1 E50 F200 ; lower extrusion speed to avoid clog
M400
M106 P1 S178
G92 E0
G1 E5 F200
M104 S220
G92 E0
M73 P2 R27
G1 E-0.5 F300

G1 X-28.5 F30000
M73 P2 R26
G1 X-48.2 F3000
M73 P3 R26
G1 X-28.5 F30000 ;wipe and shake
G1 X-48.2 F3000
G1 X-28.5 F30000 ;wipe and shake
G1 X-48.2 F3000

;G392 S0

M400
M106 P1 S0
;===== prepare print temperature and material end =====

;M400
;M73 P1.717

;===== auto extrude cali start =========================
M975 S1
;G392 S1

G90
M83
T1000
G1 X-48.2 Y0 Z10 F10000
M400
M1002 set_filament_type:UNKNOWN

M412 S1 ;  ===turn on  filament runout detection===
M400 P10
M620.3 W1; === turn on filament tangle detection===
M400 S2

M1002 set_filament_type:PLA

;M1002 set_flag extrude_cali_flag=1
M1002 judge_flag extrude_cali_flag

M622 J1
    M1002 gcode_claim_action : 8

    M109 S220
M73 P4 R26
    G1 E10 F377.08
    M983 F6.28466 A0.3 H0.4; cali dynamic extrusion compensation

    M106 P1 S255
    M400 S5
    G1 X-28.5 F18000
    G1 X-48.2 F3000
    G1 X-28.5 F18000 ;wipe and shake
    G1 X-48.2 F3000
    G1 X-28.5 F12000 ;wipe and shake
    G1 X-48.2 F3000
    M400
    M106 P1 S0

    M1002 judge_last_extrude_cali_success
    M622 J0
        M983 F6.28466 A0.3 H0.4; cali dynamic extrusion compensation
        M106 P1 S255
        M400 S5
M73 P5 R26
        G1 X-28.5 F18000
        G1 X-48.2 F3000
        G1 X-28.5 F18000 ;wipe and shake
        G1 X-48.2 F3000
        G1 X-28.5 F12000 ;wipe and shake
        M400
        M106 P1 S0
    M623
    
    G1 X-48.2 F3000
    M400
    M984 A0.1 E1 S1 F6.28466 H0.4
    M106 P1 S178
    M400 S7
    G1 X-28.5 F18000
    G1 X-48.2 F3000
    G1 X-28.5 F18000 ;wipe and shake
    G1 X-48.2 F3000
    G1 X-28.5 F12000 ;wipe and shake
    G1 X-48.2 F3000
    M400
    M106 P1 S0
M623 ; end of "draw extrinsic para cali paint"

;G392 S0
;===== auto extrude cali end ========================

;M400
;M73 P1.717

M104 S170 ; prepare to wipe nozzle
M106 S255 ; turn on fan

;===== mech mode fast check start =====================
M1002 gcode_claim_action : 3

G1 X128 Y128 F20000
G1 Z5 F1200
M400 P200
M970.3 Q1 A5 K0 O3
M974 Q1 S2 P0

M970.2 Q1 K1 W58 Z0.1
M974 S2

G1 X128 Y128 F20000
G1 Z5 F1200
M400 P200
M970.3 Q0 A10 K0 O1
M974 Q0 S2 P0

M970.2 Q0 K1 W78 Z0.1
M974 S2

M975 S1
G1 F30000
G1 X0 Y5
G28 X ; re-home XY

G1 Z4 F1200

;===== mech mode fast check end =======================

;M400
;M73 P1.717

;===== wipe nozzle ===============================
M1002 gcode_claim_action : 14

M975 S1
M106 S255 ; turn on fan (G28 has turn off fan)
M211 S; push soft endstop status
M211 X0 Y0 Z0 ;turn off Z axis endstop

;===== remove waste by touching start =====

M104 S170 ; set temp down to heatbed acceptable

M83
G1 E-1 F500
G90
M83

M109 S170
G0 X108 Y-0.5 F30000
G380 S3 Z-5 F1200
G1 Z2 F1200
G1 X110 F10000
G380 S3 Z-5 F1200
M73 P21 R21
G1 Z2 F1200
G1 X112 F10000
G380 S3 Z-5 F1200
G1 Z2 F1200
G1 X114 F10000
G380 S3 Z-5 F1200
G1 Z2 F1200
G1 X116 F10000
G380 S3 Z-5 F1200
G1 Z2 F1200
G1 X118 F10000
G380 S3 Z-5 F1200
G1 Z2 F1200
G1 X120 F10000
G380 S3 Z-5 F1200
G1 Z2 F1200
G1 X122 F10000
G380 S3 Z-5 F1200
G1 Z2 F1200
G1 X124 F10000
G380 S3 Z-5 F1200
G1 Z2 F1200
G1 X126 F10000
G380 S3 Z-5 F1200
G1 Z2 F1200
G1 X128 F10000
G380 S3 Z-5 F1200
G1 Z2 F1200
G1 X130 F10000
G380 S3 Z-5 F1200
G1 Z2 F1200
G1 X132 F10000
G380 S3 Z-5 F1200
G1 Z2 F1200
G1 X134 F10000
G380 S3 Z-5 F1200
G1 Z2 F1200
G1 X136 F10000
G380 S3 Z-5 F1200
G1 Z2 F1200
G1 X138 F10000
G380 S3 Z-5 F1200
G1 Z2 F1200
G1 X140 F10000
G380 S3 Z-5 F1200
G1 Z2 F1200
G1 X142 F10000
G380 S3 Z-5 F1200
G1 Z2 F1200
G1 X144 F10000
G380 S3 Z-5 F1200
G1 Z2 F1200
G1 X146 F10000
G380 S3 Z-5 F1200
G1 Z2 F1200
G1 X148 F10000
G380 S3 Z-5 F1200

G1 Z5 F30000
;===== remove waste by touching end =====

G1 Z10 F1200
G0 X118 Y261 F30000
G1 Z5 F1200
M109 S170

G28 Z P0 T300; home z with low precision,permit 300deg temperature
G29.2 S0 ; turn off ABL
M104 S140 ; prepare to abl
G0 Z5 F20000

G0 X128 Y261 F20000  ; move to exposed steel surface
G0 Z-1.01 F1200      ; stop the nozzle

G91
G2 I1 J0 X2 Y0 F2000.1
G2 I-0.75 J0 X-1.5
G2 I1 J0 X2
G2 I-0.75 J0 X-1.5
G2 I1 J0 X2
G2 I-0.75 J0 X-1.5
G2 I1 J0 X2
G2 I-0.75 J0 X-1.5
G2 I1 J0 X2
G2 I-0.75 J0 X-1.5
G2 I1 J0 X2
G2 I-0.75 J0 X-1.5
G2 I1 J0 X2
G2 I-0.75 J0 X-1.5
G2 I1 J0 X2
G2 I-0.75 J0 X-1.5
G2 I1 J0 X2
G2 I-0.75 J0 X-1.5
G2 I1 J0 X2
G2 I-0.75 J0 X-1.5

G90
G1 Z10 F1200

;===== brush material wipe nozzle =====

G90
G1 Y250 F30000
G1 X55
G1 Z1.300 F1200
G1 Y262.5 F6000
G91
G1 X-35 F30000
G1 Y-0.5
G1 X45
G1 Y-0.5
G1 X-45
G1 Y-0.5
G1 X45
G1 Y-0.5
G1 X-45
G1 Y-0.5
G1 X45
G1 Z5.000 F1200

G90
G1 X30 Y250.000 F30000
G1 Z1.300 F1200
G1 Y262.5 F6000
G91
G1 X35 F30000
G1 Y-0.5
G1 X-45
G1 Y-0.5
G1 X45
G1 Y-0.5
G1 X-45
G1 Y-0.5
G1 X45
G1 Y-0.5
G1 X-45
G1 Z10.000 F1200

;===== brush material wipe nozzle end =====

G90
;G0 X128 Y261 F20000  ; move to exposed steel surface
G1 Y250 F30000
G1 X138
G1 Y261
G0 Z-1.01 F1200      ; stop the nozzle

G91
G2 I1 J0 X2 Y0 F2000.1
G2 I-0.75 J0 X-1.5
G2 I1 J0 X2
G2 I-0.75 J0 X-1.5
G2 I1 J0 X2
G2 I-0.75 J0 X-1.5
G2 I1 J0 X2
G2 I-0.75 J0 X-1.5
G2 I1 J0 X2
G2 I-0.75 J0 X-1.5
G2 I1 J0 X2
G2 I-0.75 J0 X-1.5
M73 P22 R21
G2 I1 J0 X2
G2 I-0.75 J0 X-1.5
G2 I1 J0 X2
G2 I-0.75 J0 X-1.5
G2 I1 J0 X2
G2 I-0.75 J0 X-1.5
G2 I1 J0 X2
G2 I-0.75 J0 X-1.5

M109 S140
M106 S255 ; turn on fan (G28 has turn off fan)

M211 R; pop softend status

;===== wipe nozzle end ================================

;M400
;M73 P1.717

;===== bed leveling ==================================
M1002 judge_flag g29_before_print_flag

G90
G1 Z5 F1200
G1 X0 Y0 F30000
G29.2 S1 ; turn on ABL

M190 S65; ensure bed temp
M109 S140
M106 S0 ; turn off fan , too noisy

M622 J1
    M1002 gcode_claim_action : 1
    G29 A1 X115.2 Y115.2 I25.6 J25.6
    M400
    M500 ; save cali data
M623
;===== bed leveling end ================================

;===== home after wipe mouth============================
M1002 judge_flag g29_before_print_flag
M622 J0

    M1002 gcode_claim_action : 13
    G28

M623

;===== home after wipe mouth end =======================

;M400
;M73 P1.717

G1 X108.000 Y-0.500 F30000
G1 Z0.300 F1200
M400
G2814 Z0.32

M104 S220 ; prepare to print

;===== nozzle load line ===============================
;G90
;M83
;G1 Z5 F1200
;G1 X88 Y-0.5 F20000
;G1 Z0.3 F1200

;M109 S220

;G1 E2 F300
;G1 X168 E4.989 F6000
;G1 Z1 F1200
;===== nozzle load line end ===========================

;===== extrude cali test ===============================

M400
    M900 S
    M900 C
    G90
    M83

    M109 S220
    G0 X128 E8  F904.991
    G0 X133 E.3742  F1508.32
    G0 X138 E.3742  F6033.27
    G0 X143 E.3742  F1508.32
    G0 X148 E.3742  F6033.27
    G0 X153 E.3742  F1508.32
    G91
    G1 X1 Z-0.300
    G1 X4
    G1 Z1 F1200
    G90
    M400

M900 R

M1002 judge_flag extrude_cali_flag
M622 J1
    G90
    G1 X108.000 Y1.000 F30000
    G91
    G1 Z-0.700 F1200
    G90
    M83
    G0 X128 E10  F904.991
    G0 X133 E.3742  F1508.32
    G0 X138 E.3742  F6033.27
    G0 X143 E.3742  F1508.32
    G0 X148 E.3742  F6033.27
    G0 X153 E.3742  F1508.32
    G91
    G1 X1 Z-0.300
    G1 X4
    G1 Z1 F1200
    G90
    M400
M623

G1 Z0.2

;M400
;M73 P1.717

;========turn off light and wait extrude temperature =============
M1002 gcode_claim_action : 0
M400

;===== for Textured PEI Plate , lower the nozzle as the nozzle was touching topmost of the texture when homing ==
;curr_bed_type=Textured PEI Plate

G29.1 Z-0.02 ; for Textured PEI Plate


M960 S1 P0 ; turn off laser
M960 S2 P0 ; turn off laser
M106 S0 ; turn off fan
M106 P2 S0 ; turn off big fan
M106 P3 S0 ; turn off chamber fan

M975 S1 ; turn on mech mode supression
G90
M83
T1000

M211 X0 Y0 Z0 ;turn off soft endstop
;G392 S1 ; turn on clog detection
M1007 S1 ; turn on mass estimation
G29.4
; MACHINE_START_GCODE_END
; filament start gcode
M106 P3 S255


;VT0
G90
G21
M83 ; use relative distances for extrusion
M981 S1 P20000 ;open spaghetti detector
; CHANGE_LAYER
; Z_HEIGHT: 0.2
; LAYER_HEIGHT: 0.2
G1 E-.8 F1800
; layer num/total_layer_count: 1/128
; update layer progress
M73 L1
M991 S0 P0 ;notify layer change
M106 S0
; OBJECT_ID: 174
G1 X140.018 Y140.018 F42000
M204 S6000
G1 Z.4
G1 Z.2
G1 E.8 F1800
; FEATURE: Inner wall
; LINE_WIDTH: 0.5
G1 F3000
M204 S500
G1 X115.982 Y140.018 E.89525
G1 X115.982 Y115.982 E.89525
G1 X140.018 Y115.982 E.89525
G1 X140.018 Y139.958 E.89301
M204 S6000
G1 X140.475 Y140.475 F42000
; FEATURE: Outer wall
G1 F3000
M204 S500
G1 X115.525 Y140.475 E.92929
G1 X115.525 Y115.525 E.92929
G1 X140.475 Y115.525 E.92929
G1 X140.475 Y140.415 E.92706
; WIPE_START
G1 X138.475 Y140.42 E-.76
; WIPE_END
G1 E-.04 F1800
M204 S6000
G17
G3 Z.6 I1.217 J0 P1  F42000
;===================== date: 20250206 =====================

; don't support timelapse gcode in spiral_mode and by object sequence for I3 structure printer
; SKIPPABLE_START
; SKIPTYPE: timelapse
M622.1 S1 ; for prev firmware, default turned on
M1002 judge_flag timelapse_record_flag
M622 J1
G92 E0
G1 Z0.6
G1 X0 Y128 F18000 ; move to safe pos
G1 X-48.2 F3000 ; move to safe pos
M400
M1004 S5 P1  ; external shutter
M400 P300
M971 S11 C11 O0
G92 E0
G1 X0 F18000
M623

; SKIPTYPE: head_wrap_detect
M622.1 S1
M1002 judge_flag g39_3rd_layer_detect_flag
M622 J1
    ; enable nozzle clog detect at 3rd layer
    


    M622.1 S1
    M1002 judge_flag g39_detection_flag
    M622 J1
      
        M622.1 S0
        M1002 judge_flag g39_mass_exceed_flag
        M622 J1
        
        M623
    
    M623
M623
; SKIPPABLE_END


G1 X138.906 Y116.165 F42000
G1 Z.2
G1 E.8 F1800
; FEATURE: Bottom surface
; LINE_WIDTH: 0.50236
G1 F6300
M204 S500
G1 X139.629 Y116.888 E.0383
G1 X139.629 Y117.538 E.02433
G1 X138.462 Y116.371 E.06181
G1 X137.812 Y116.371 E.02433
G1 X139.629 Y118.188 E.09621
G1 X139.629 Y118.837 E.02433
G1 X137.163 Y116.371 E.13061
G1 X136.513 Y116.371 E.02433
G1 X139.629 Y119.487 E.16501
G1 X139.629 Y120.137 E.02433
G1 X135.863 Y116.371 E.19941
G1 X135.213 Y116.371 E.02433
G1 X139.629 Y120.787 E.23381
G1 X139.629 Y121.436 E.02433
G1 X134.564 Y116.371 E.26822
G1 X133.914 Y116.371 E.02433
G1 X139.629 Y122.086 E.30262
G1 X139.629 Y122.736 E.02433
G1 X133.264 Y116.371 E.33702
G1 X132.614 Y116.371 E.02433
G1 X139.629 Y123.386 E.37142
G1 X139.629 Y124.035 E.02433
G1 X131.965 Y116.371 E.40582
G1 X131.315 Y116.371 E.02433
G1 X139.629 Y124.685 E.44022
G1 X139.629 Y125.335 E.02433
G1 X130.665 Y116.371 E.47463
G1 X130.015 Y116.371 E.02433
G1 X139.629 Y125.985 E.50903
G1 X139.629 Y126.634 E.02433
G1 X129.366 Y116.371 E.54343
G1 X128.716 Y116.371 E.02433
M73 P23 R21
G1 X139.629 Y127.284 E.57783
G1 X139.629 Y127.934 E.02433
G1 X128.066 Y116.371 E.61223
G1 X127.416 Y116.371 E.02433
G1 X139.629 Y128.584 E.64663
G1 X139.629 Y129.233 E.02433
G1 X126.767 Y116.371 E.68103
G1 X126.117 Y116.371 E.02433
G1 X139.629 Y129.883 E.71544
G1 X139.629 Y130.533 E.02433
G1 X125.467 Y116.371 E.74984
G1 X124.817 Y116.371 E.02433
G1 X139.629 Y131.183 E.78424
G1 X139.629 Y131.832 E.02433
G1 X124.168 Y116.371 E.81864
G1 X123.518 Y116.371 E.02433
G1 X139.629 Y132.482 E.85304
G1 X139.629 Y133.132 E.02433
G1 X122.868 Y116.371 E.88744
G1 X122.218 Y116.371 E.02433
G1 X139.629 Y133.782 E.92185
G1 X139.629 Y134.431 E.02433
G1 X121.569 Y116.371 E.95625
G1 X120.919 Y116.371 E.02433
G1 X139.629 Y135.081 E.99065
G1 X139.629 Y135.731 E.02433
G1 X120.269 Y116.371 E1.02505
G1 X119.619 Y116.371 E.02433
G1 X139.629 Y136.381 E1.05945
G1 X139.629 Y137.03 E.02433
G1 X118.97 Y116.371 E1.09385
G1 X118.32 Y116.371 E.02433
G1 X139.629 Y137.68 E1.12825
G1 X139.629 Y138.33 E.02433
G1 X117.67 Y116.371 E1.16266
G1 X117.02 Y116.371 E.02433
G1 X139.629 Y138.98 E1.19706
G1 X139.629 Y139.629 E.02433
G1 X116.371 Y116.371 E1.23146
G1 X116.371 Y117.02 E.02432
G1 X138.98 Y139.629 E1.19707
G1 X138.33 Y139.629 E.02433
G1 X116.371 Y117.67 E1.16267
G1 X116.371 Y118.32 E.02433
G1 X137.68 Y139.629 E1.12827
G1 X137.031 Y139.629 E.02433
G1 X116.371 Y118.969 E1.09386
G1 X116.371 Y119.619 E.02433
G1 X136.381 Y139.629 E1.05946
G1 X135.731 Y139.629 E.02433
G1 X116.371 Y120.269 E1.02506
G1 X116.371 Y120.919 E.02433
G1 X135.081 Y139.629 E.99066
G1 X134.432 Y139.629 E.02433
G1 X116.371 Y121.568 E.95626
G1 X116.371 Y122.218 E.02433
G1 X133.782 Y139.629 E.92186
G1 X133.132 Y139.629 E.02433
G1 X116.371 Y122.868 E.88746
G1 X116.371 Y123.518 E.02433
G1 X132.482 Y139.629 E.85305
G1 X131.833 Y139.629 E.02433
G1 X116.371 Y124.167 E.81865
G1 X116.371 Y124.817 E.02433
G1 X131.183 Y139.629 E.78425
G1 X130.533 Y139.629 E.02433
G1 X116.371 Y125.467 E.74985
G1 X116.371 Y126.117 E.02433
G1 X129.883 Y139.629 E.71545
G1 X129.234 Y139.629 E.02433
G1 X116.371 Y126.766 E.68105
G1 X116.371 Y127.416 E.02433
G1 X128.584 Y139.629 E.64664
G1 X127.934 Y139.629 E.02433
G1 X116.371 Y128.066 E.61224
G1 X116.371 Y128.716 E.02433
G1 X127.284 Y139.629 E.57784
G1 X126.635 Y139.629 E.02433
G1 X116.371 Y129.365 E.54344
G1 X116.371 Y130.015 E.02433
G1 X125.985 Y139.629 E.50904
G1 X125.335 Y139.629 E.02433
M73 P24 R21
G1 X116.371 Y130.665 E.47464
G1 X116.371 Y131.315 E.02433
G1 X124.685 Y139.629 E.44024
G1 X124.036 Y139.629 E.02433
G1 X116.371 Y131.964 E.40583
G1 X116.371 Y132.614 E.02433
G1 X123.386 Y139.629 E.37143
G1 X122.736 Y139.629 E.02433
G1 X116.371 Y133.264 E.33703
G1 X116.371 Y133.914 E.02433
G1 X122.086 Y139.629 E.30263
G1 X121.437 Y139.629 E.02433
G1 X116.371 Y134.563 E.26823
G1 X116.371 Y135.213 E.02433
G1 X120.787 Y139.629 E.23383
G1 X120.137 Y139.629 E.02433
G1 X116.371 Y135.863 E.19943
G1 X116.371 Y136.513 E.02433
G1 X119.487 Y139.629 E.16502
G1 X118.838 Y139.629 E.02433
G1 X116.371 Y137.162 E.13062
G1 X116.371 Y137.812 E.02433
G1 X118.188 Y139.629 E.09622
G1 X117.538 Y139.629 E.02433
G1 X116.371 Y138.462 E.06182
G1 X116.371 Y139.112 E.02433
G1 X117.094 Y139.835 E.03831
; CHANGE_LAYER
; Z_HEIGHT: 0.4
; LAYER_HEIGHT: 0.2
; WIPE_START
G1 F6300
G1 X116.371 Y139.112 E-.38882
G1 X116.371 Y138.462 E-.2469
G1 X116.602 Y138.693 E-.12428
; WIPE_END
G1 E-.04 F1800
; layer num/total_layer_count: 2/128
; update layer progress
M73 L2
M991 S0 P1 ;notify layer change
M106 S201.45
; open powerlost recovery
M1003 S1
; OBJECT_ID: 174
M204 S10000
G17
M73 P24 R20
G3 Z.6 I-.077 J1.214 P1  F42000
G1 X140.198 Y140.198 Z.6
G1 Z.4
G1 E.8 F1800
; FEATURE: Inner wall
; LINE_WIDTH: 0.45
G1 F16213.044
M204 S6000
G1 X115.802 Y140.198 E.80926
G1 X115.802 Y115.802 E.80926
G1 X140.198 Y115.802 E.80926
G1 X140.198 Y140.138 E.80727
M204 S10000
G1 X140.59 Y140.59 F42000
; FEATURE: Outer wall
; LINE_WIDTH: 0.42
G1 F12000
M204 S5000
G1 X115.41 Y140.59 E.77371
G1 X115.41 Y115.41 E.77371
G1 X140.59 Y115.41 E.77371
G1 X140.59 Y140.53 E.77187
; WIPE_START
M204 S6000
G1 X138.59 Y140.535 E-.76
; WIPE_END
G1 E-.04 F1800
M204 S10000
G17
G3 Z.8 I1.217 J0 P1  F42000
;===================== date: 20250206 =====================

; don't support timelapse gcode in spiral_mode and by object sequence for I3 structure printer
; SKIPPABLE_START
; SKIPTYPE: timelapse
M622.1 S1 ; for prev firmware, default turned on
M1002 judge_flag timelapse_record_flag
M622 J1
G92 E0
G1 Z0.8
G1 X0 Y128 F18000 ; move to safe pos
G1 X-48.2 F3000 ; move to safe pos
M400
M1004 S5 P1  ; external shutter
M400 P300
M971 S11 C11 O0
G92 E0
G1 X0 F18000
M623

; SKIPTYPE: head_wrap_detect
M622.1 S1
M1002 judge_flag g39_3rd_layer_detect_flag
M622 J1
    ; enable nozzle clog detect at 3rd layer
    


    M622.1 S1
    M1002 judge_flag g39_detection_flag
    M622 J1
      
        M622.1 S0
        M1002 judge_flag g39_mass_exceed_flag
        M622 J1
        
        M623
    
    M623
M623
; SKIPPABLE_END


G1 X139.268 Y140.034 F42000
G1 Z.4
G1 E.8 F1800
; FEATURE: Internal solid infill
; LINE_WIDTH: 0.42171
G1 F15000
M204 S6000
G1 X139.865 Y139.438 E.02603
G1 X139.865 Y138.902 E.01653
G1 X138.902 Y139.865 E.042
G1 X138.367 Y139.865 E.01653
G1 X139.865 Y138.367 E.06539
G1 X139.865 Y137.831 E.01653
G1 X137.831 Y139.865 E.08877
G1 X137.295 Y139.865 E.01653
G1 X139.865 Y137.295 E.11215
G1 X139.865 Y136.76 E.01653
G1 X136.76 Y139.865 E.13554
G1 X136.224 Y139.865 E.01653
G1 X139.865 Y136.224 E.15892
G1 X139.865 Y135.688 E.01653
G1 X135.688 Y139.865 E.18231
G1 X135.153 Y139.865 E.01653
G1 X139.865 Y135.153 E.20569
G1 X139.865 Y134.617 E.01653
G1 X134.617 Y139.865 E.22907
G1 X134.081 Y139.865 E.01653
G1 X139.865 Y134.081 E.25246
G1 X139.865 Y133.546 E.01653
G1 X133.546 Y139.865 E.27584
G1 X133.01 Y139.865 E.01653
G1 X139.865 Y133.01 E.29923
G1 X139.865 Y132.474 E.01653
G1 X132.474 Y139.865 E.32261
G1 X131.938 Y139.865 E.01653
G1 X139.865 Y131.938 E.34599
G1 X139.865 Y131.403 E.01653
G1 X131.403 Y139.865 E.36938
G1 X130.867 Y139.865 E.01653
G1 X139.865 Y130.867 E.39276
G1 X139.865 Y130.331 E.01653
G1 X130.331 Y139.865 E.41615
G1 X129.796 Y139.865 E.01653
G1 X139.865 Y129.796 E.43953
G1 X139.865 Y129.26 E.01653
G1 X129.26 Y139.865 E.46291
G1 X128.724 Y139.865 E.01653
G1 X139.865 Y128.724 E.4863
G1 X139.865 Y128.189 E.01653
G1 X128.189 Y139.865 E.50968
G1 X127.653 Y139.865 E.01653
G1 X139.865 Y127.653 E.53307
G1 X139.865 Y127.117 E.01653
G1 X127.117 Y139.865 E.55645
G1 X126.582 Y139.865 E.01653
G1 X139.865 Y126.582 E.57983
G1 X139.865 Y126.046 E.01653
G1 X126.046 Y139.865 E.60322
G1 X125.51 Y139.865 E.01653
G1 X139.865 Y125.51 E.6266
G1 X139.865 Y124.975 E.01653
G1 X124.975 Y139.865 E.64998
G1 X124.439 Y139.865 E.01653
G1 X139.865 Y124.439 E.67337
G1 X139.865 Y123.903 E.01653
G1 X123.903 Y139.865 E.69675
G1 X123.367 Y139.865 E.01653
G1 X139.865 Y123.367 E.72014
G1 X139.865 Y122.832 E.01653
G1 X122.832 Y139.865 E.74352
G1 X122.296 Y139.865 E.01653
G1 X139.865 Y122.296 E.7669
G1 X139.865 Y121.76 E.01653
G1 X121.76 Y139.865 E.79029
G1 X121.225 Y139.865 E.01653
G1 X139.865 Y121.225 E.81367
G1 X139.865 Y120.689 E.01653
G1 X120.689 Y139.865 E.83706
G1 X120.153 Y139.865 E.01653
G1 X139.865 Y120.153 E.86044
G1 X139.865 Y119.618 E.01653
G1 X119.618 Y139.865 E.88382
G1 X119.082 Y139.865 E.01653
G1 X139.865 Y119.082 E.90721
G1 X139.865 Y118.546 E.01653
G1 X118.546 Y139.865 E.93059
G1 X118.011 Y139.865 E.01653
G1 X139.865 Y118.011 E.95398
G1 X139.865 Y117.475 E.01653
G1 X117.475 Y139.865 E.97736
G1 X116.939 Y139.865 E.01653
G1 X139.865 Y116.939 E1.00074
G1 X139.865 Y116.403 E.01653
G1 X116.403 Y139.865 E1.02413
G1 X116.135 Y139.865 E.00828
G1 X116.135 Y139.597 E.00826
G1 X139.597 Y116.135 E1.02415
G1 X139.061 Y116.135 E.01653
G1 X116.135 Y139.061 E1.00077
G1 X116.135 Y138.526 E.01653
G1 X138.526 Y116.135 E.97739
G1 X137.99 Y116.135 E.01653
G1 X116.135 Y137.99 E.954
G1 X116.135 Y137.454 E.01653
G1 X137.454 Y116.135 E.93062
G1 X136.919 Y116.135 E.01653
G1 X116.135 Y136.919 E.90723
G1 X116.135 Y136.383 E.01653
G1 X136.383 Y116.135 E.88385
M73 P25 R20
G1 X135.847 Y116.135 E.01653
G1 X116.135 Y135.847 E.86047
G1 X116.135 Y135.312 E.01653
G1 X135.312 Y116.135 E.83708
G1 X134.776 Y116.135 E.01653
G1 X116.135 Y134.776 E.8137
G1 X116.135 Y134.24 E.01653
G1 X134.24 Y116.135 E.79031
G1 X133.705 Y116.135 E.01653
G1 X116.135 Y133.705 E.76693
G1 X116.135 Y133.169 E.01653
G1 X133.169 Y116.135 E.74355
G1 X132.633 Y116.135 E.01653
G1 X116.135 Y132.633 E.72016
G1 X116.135 Y132.097 E.01653
G1 X132.097 Y116.135 E.69678
G1 X131.562 Y116.135 E.01653
G1 X116.135 Y131.562 E.6734
G1 X116.135 Y131.026 E.01653
G1 X131.026 Y116.135 E.65001
G1 X130.49 Y116.135 E.01653
G1 X116.135 Y130.49 E.62663
G1 X116.135 Y129.955 E.01653
G1 X129.955 Y116.135 E.60324
G1 X129.419 Y116.135 E.01653
G1 X116.135 Y129.419 E.57986
G1 X116.135 Y128.883 E.01653
G1 X128.883 Y116.135 E.55648
G1 X128.348 Y116.135 E.01653
G1 X116.135 Y128.348 E.53309
G1 X116.135 Y127.812 E.01653
G1 X127.812 Y116.135 E.50971
G1 X127.276 Y116.135 E.01653
G1 X116.135 Y127.276 E.48632
G1 X116.135 Y126.741 E.01653
G1 X126.741 Y116.135 E.46294
G1 X126.205 Y116.135 E.01653
G1 X116.135 Y126.205 E.43956
G1 X116.135 Y125.669 E.01653
G1 X125.669 Y116.135 E.41617
G1 X125.134 Y116.135 E.01653
G1 X116.135 Y125.134 E.39279
G1 X116.135 Y124.598 E.01653
G1 X124.598 Y116.135 E.3694
G1 X124.062 Y116.135 E.01653
G1 X116.135 Y124.062 E.34602
G1 X116.135 Y123.526 E.01653
G1 X123.526 Y116.135 E.32264
G1 X122.991 Y116.135 E.01653
G1 X116.135 Y122.991 E.29925
G1 X116.135 Y122.455 E.01653
G1 X122.455 Y116.135 E.27587
G1 X121.919 Y116.135 E.01653
G1 X116.135 Y121.919 E.25249
G1 X116.135 Y121.384 E.01653
G1 X121.384 Y116.135 E.2291
G1 X120.848 Y116.135 E.01653
G1 X116.135 Y120.848 E.20572
G1 X116.135 Y120.312 E.01653
G1 X120.312 Y116.135 E.18233
G1 X119.777 Y116.135 E.01653
G1 X116.135 Y119.777 E.15895
G1 X116.135 Y119.241 E.01653
G1 X119.241 Y116.135 E.13557
G1 X118.705 Y116.135 E.01653
G1 X116.135 Y118.705 E.11218
G1 X116.135 Y118.17 E.01653
G1 X118.17 Y116.135 E.0888
G1 X117.634 Y116.135 E.01653
G1 X116.135 Y117.634 E.06541
G1 X116.135 Y117.098 E.01653
G1 X117.098 Y116.135 E.04203
G1 X116.562 Y116.135 E.01653
G1 X115.966 Y116.732 E.02605
; CHANGE_LAYER
; Z_HEIGHT: 0.6
; LAYER_HEIGHT: 0.2
; WIPE_START
G1 F15000
G1 X116.562 Y116.135 E-.32074
G1 X117.098 Y116.135 E-.20356
G1 X116.66 Y116.574 E-.2357
; WIPE_END
G1 E-.04 F1800
; layer num/total_layer_count: 3/128
; update layer progress
M73 L3
M991 S0 P2 ;notify layer change
; OBJECT_ID: 174
M204 S10000
G17
G3 Z.8 I-.862 J.859 P1  F42000
G1 X140.198 Y140.198 Z.8
G1 Z.6
G1 E.8 F1800
; FEATURE: Inner wall
; LINE_WIDTH: 0.45
G1 F16213.044
M204 S6000
G1 X115.802 Y140.198 E.80926
G1 X115.802 Y115.802 E.80926
G1 X140.198 Y115.802 E.80926
G1 X140.198 Y140.138 E.80727
M204 S10000
G1 X140.59 Y140.59 F42000
; FEATURE: Outer wall
; LINE_WIDTH: 0.42
G1 F12000
M204 S5000
G1 X115.41 Y140.59 E.77371
G1 X115.41 Y115.41 E.77371
G1 X140.59 Y115.41 E.77371
G1 X140.59 Y140.53 E.77187
; WIPE_START
M204 S6000
G1 X138.59 Y140.535 E-.76
; WIPE_END
G1 E-.04 F1800
M204 S10000
G17
G3 Z1 I1.217 J0 P1  F42000
;===================== date: 20250206 =====================

; don't support timelapse gcode in spiral_mode and by object sequence for I3 structure printer
; SKIPPABLE_START
; SKIPTYPE: timelapse
M622.1 S1 ; for prev firmware, default turned on
M1002 judge_flag timelapse_record_flag
M622 J1
G92 E0
G1 Z1
G1 X0 Y128 F18000 ; move to safe pos
G1 X-48.2 F3000 ; move to safe pos
M400
M1004 S5 P1  ; external shutter
M400 P300
M971 S11 C11 O0
G92 E0
G1 X0 F18000
M623

; SKIPTYPE: head_wrap_detect
M622.1 S1
M1002 judge_flag g39_3rd_layer_detect_flag
M622 J1
    ; enable nozzle clog detect at 3rd layer
    
      M400
      G90
      M83
      M204 S5000
      G0 Z2 F4000
      G0 X261 Y250 F20000
      M400 P200
      G39 S1
      G0 Z2 F4000
    


    M622.1 S1
    M1002 judge_flag g39_detection_flag
    M622 J1
      
        M622.1 S0
        M1002 judge_flag g39_mass_exceed_flag
        M622 J1
        
        M623
    
    M623
M623
; SKIPPABLE_END


G1 X116.732 Y140.034 F42000
G1 Z.6
G1 E.8 F1800
; FEATURE: Internal solid infill
; LINE_WIDTH: 0.42171
G1 F15000
M204 S6000
G1 X116.135 Y139.438 E.02605
G1 X116.135 Y138.902 E.01653
G1 X117.098 Y139.865 E.04203
G1 X117.634 Y139.865 E.01653
G1 X116.135 Y138.366 E.06541
G1 X116.135 Y137.83 E.01653
G1 X118.17 Y139.865 E.0888
G1 X118.705 Y139.865 E.01653
G1 X116.135 Y137.295 E.11218
G1 X116.135 Y136.759 E.01653
G1 X119.241 Y139.865 E.13557
G1 X119.777 Y139.865 E.01653
G1 X116.135 Y136.223 E.15895
G1 X116.135 Y135.688 E.01653
G1 X120.312 Y139.865 E.18233
G1 X120.848 Y139.865 E.01653
G1 X116.135 Y135.152 E.20572
G1 X116.135 Y134.616 E.01653
G1 X121.384 Y139.865 E.2291
G1 X121.919 Y139.865 E.01653
G1 X116.135 Y134.081 E.25249
G1 X116.135 Y133.545 E.01653
G1 X122.455 Y139.865 E.27587
G1 X122.991 Y139.865 E.01653
G1 X116.135 Y133.009 E.29925
G1 X116.135 Y132.474 E.01653
G1 X123.526 Y139.865 E.32264
G1 X124.062 Y139.865 E.01653
G1 X116.135 Y131.938 E.34602
G1 X116.135 Y131.402 E.01653
G1 X124.598 Y139.865 E.3694
G1 X125.134 Y139.865 E.01653
G1 X116.135 Y130.866 E.39279
G1 X116.135 Y130.331 E.01653
G1 X125.669 Y139.865 E.41617
G1 X126.205 Y139.865 E.01653
G1 X116.135 Y129.795 E.43956
G1 X116.135 Y129.259 E.01653
G1 X126.741 Y139.865 E.46294
G1 X127.276 Y139.865 E.01653
G1 X116.135 Y128.724 E.48632
G1 X116.135 Y128.188 E.01653
G1 X127.812 Y139.865 E.50971
G1 X128.348 Y139.865 E.01653
G1 X116.135 Y127.652 E.53309
G1 X116.135 Y127.117 E.01653
G1 X128.883 Y139.865 E.55648
G1 X129.419 Y139.865 E.01653
G1 X116.135 Y126.581 E.57986
G1 X116.135 Y126.045 E.01653
G1 X129.955 Y139.865 E.60324
G1 X130.49 Y139.865 E.01653
G1 X116.135 Y125.51 E.62663
G1 X116.135 Y124.974 E.01653
G1 X131.026 Y139.865 E.65001
G1 X131.562 Y139.865 E.01653
G1 X116.135 Y124.438 E.6734
G1 X116.135 Y123.903 E.01653
G1 X132.097 Y139.865 E.69678
G1 X132.633 Y139.865 E.01653
G1 X116.135 Y123.367 E.72016
G1 X116.135 Y122.831 E.01653
G1 X133.169 Y139.865 E.74355
G1 X133.705 Y139.865 E.01653
G1 X116.135 Y122.295 E.76693
G1 X116.135 Y121.76 E.01653
G1 X134.24 Y139.865 E.79031
G1 X134.776 Y139.865 E.01653
G1 X116.135 Y121.224 E.8137
G1 X116.135 Y120.688 E.01653
G1 X135.312 Y139.865 E.83708
G1 X135.847 Y139.865 E.01653
G1 X116.135 Y120.153 E.86047
G1 X116.135 Y119.617 E.01653
G1 X136.383 Y139.865 E.88385
G1 X136.919 Y139.865 E.01653
G1 X116.135 Y119.081 E.90723
G1 X116.135 Y118.546 E.01653
G1 X137.454 Y139.865 E.93062
G1 X137.99 Y139.865 E.01653
G1 X116.135 Y118.01 E.954
G1 X116.135 Y117.474 E.01653
G1 X138.526 Y139.865 E.97739
G1 X139.061 Y139.865 E.01653
G1 X116.135 Y116.939 E1.00077
G1 X116.135 Y116.403 E.01653
G1 X139.597 Y139.865 E1.02415
G1 X139.865 Y139.865 E.00826
G1 X139.865 Y139.597 E.00828
G1 X116.403 Y116.135 E1.02413
G1 X116.939 Y116.135 E.01653
G1 X139.865 Y139.061 E1.00074
G1 X139.865 Y138.525 E.01653
G1 X117.475 Y116.135 E.97736
G1 X118.011 Y116.135 E.01653
G1 X139.865 Y137.989 E.95398
G1 X139.865 Y137.454 E.01653
G1 X118.546 Y116.135 E.93059
G1 X119.082 Y116.135 E.01653
G1 X139.865 Y136.918 E.90721
G1 X139.865 Y136.382 E.01653
G1 X119.618 Y116.135 E.88382
G1 X120.153 Y116.135 E.01653
G1 X139.865 Y135.847 E.86044
G1 X139.865 Y135.311 E.01653
G1 X120.689 Y116.135 E.83706
G1 X121.225 Y116.135 E.01653
G1 X139.865 Y134.775 E.81367
G1 X139.865 Y134.24 E.01653
G1 X121.76 Y116.135 E.79029
G1 X122.296 Y116.135 E.01653
G1 X139.865 Y133.704 E.7669
G1 X139.865 Y133.168 E.01653
G1 X122.832 Y116.135 E.74352
G1 X123.367 Y116.135 E.01653
M73 P26 R20
G1 X139.865 Y132.633 E.72014
G1 X139.865 Y132.097 E.01653
G1 X123.903 Y116.135 E.69675
G1 X124.439 Y116.135 E.01653
G1 X139.865 Y131.561 E.67337
G1 X139.865 Y131.025 E.01653
G1 X124.975 Y116.135 E.64998
G1 X125.51 Y116.135 E.01653
G1 X139.865 Y130.49 E.6266
G1 X139.865 Y129.954 E.01653
G1 X126.046 Y116.135 E.60322
G1 X126.582 Y116.135 E.01653
G1 X139.865 Y129.418 E.57983
G1 X139.865 Y128.883 E.01653
G1 X127.117 Y116.135 E.55645
G1 X127.653 Y116.135 E.01653
G1 X139.865 Y128.347 E.53307
G1 X139.865 Y127.811 E.01653
G1 X128.189 Y116.135 E.50968
G1 X128.724 Y116.135 E.01653
G1 X139.865 Y127.276 E.4863
G1 X139.865 Y126.74 E.01653
G1 X129.26 Y116.135 E.46291
G1 X129.796 Y116.135 E.01653
G1 X139.865 Y126.204 E.43953
G1 X139.865 Y125.669 E.01653
G1 X130.331 Y116.135 E.41615
G1 X130.867 Y116.135 E.01653
G1 X139.865 Y125.133 E.39276
G1 X139.865 Y124.597 E.01653
G1 X131.403 Y116.135 E.36938
G1 X131.938 Y116.135 E.01653
G1 X139.865 Y124.062 E.34599
G1 X139.865 Y123.526 E.01653
G1 X132.474 Y116.135 E.32261
G1 X133.01 Y116.135 E.01653
G1 X139.865 Y122.99 E.29923
G1 X139.865 Y122.454 E.01653
G1 X133.546 Y116.135 E.27584
G1 X134.081 Y116.135 E.01653
G1 X139.865 Y121.919 E.25246
G1 X139.865 Y121.383 E.01653
G1 X134.617 Y116.135 E.22907
G1 X135.153 Y116.135 E.01653
G1 X139.865 Y120.847 E.20569
G1 X139.865 Y120.312 E.01653
G1 X135.688 Y116.135 E.18231
G1 X136.224 Y116.135 E.01653
G1 X139.865 Y119.776 E.15892
G1 X139.865 Y119.24 E.01653
G1 X136.76 Y116.135 E.13554
G1 X137.295 Y116.135 E.01653
G1 X139.865 Y118.705 E.11215
G1 X139.865 Y118.169 E.01653
G1 X137.831 Y116.135 E.08877
G1 X138.367 Y116.135 E.01653
G1 X139.865 Y117.633 E.06539
G1 X139.865 Y117.098 E.01653
G1 X138.902 Y116.135 E.042
G1 X139.438 Y116.135 E.01653
G1 X140.034 Y116.732 E.02603
; CHANGE_LAYER
; Z_HEIGHT: 0.8
; LAYER_HEIGHT: 0.2
; WIPE_START
G1 F15000
G1 X139.438 Y116.135 E-.32041
G1 X138.902 Y116.135 E-.20356
G1 X139.342 Y116.575 E-.23603
; WIPE_END
G1 E-.04 F1800
; layer num/total_layer_count: 4/128
; update layer progress
M73 L4
M991 S0 P3 ;notify layer change
; OBJECT_ID: 174
M204 S10000
G17
G3 Z1 I-1.216 J.044 P1  F42000
G1 X140.198 Y140.198 Z1
G1 Z.8
G1 E.8 F1800
; FEATURE: Inner wall
; LINE_WIDTH: 0.45
G1 F4289
M204 S6000
G1 X115.802 Y140.198 E.80926
G1 X115.802 Y115.802 E.80926
G1 X140.198 Y115.802 E.80926
G1 X140.198 Y140.138 E.80727
M204 S10000
G1 X140.59 Y140.59 F42000
; FEATURE: Outer wall
; LINE_WIDTH: 0.42
G1 F4289
M204 S5000
G1 X115.41 Y140.59 E.77371
G1 X115.41 Y115.41 E.77371
G1 X140.59 Y115.41 E.77371
G1 X140.59 Y140.53 E.77187
; WIPE_START
G1 F12000
M204 S6000
G1 X138.59 Y140.535 E-.76
; WIPE_END
G1 E-.04 F1800
M204 S10000
G17
G3 Z1.2 I1.217 J0 P1  F42000
;===================== date: 20250206 =====================

; don't support timelapse gcode in spiral_mode and by object sequence for I3 structure printer
; SKIPPABLE_START
; SKIPTYPE: timelapse
M622.1 S1 ; for prev firmware, default turned on
M1002 judge_flag timelapse_record_flag
M622 J1
G92 E0
G1 Z1.2
G1 X0 Y128 F18000 ; move to safe pos
G1 X-48.2 F3000 ; move to safe pos
M400
M1004 S5 P1  ; external shutter
M400 P300
M971 S11 C11 O0
G92 E0
G1 X0 F18000
M623

; SKIPTYPE: head_wrap_detect
M622.1 S1
M1002 judge_flag g39_3rd_layer_detect_flag
M622 J1
    ; enable nozzle clog detect at 3rd layer
    


    M622.1 S1
    M1002 judge_flag g39_detection_flag
    M622 J1
      
        M622.1 S0
        M1002 judge_flag g39_mass_exceed_flag
        M622 J1
        
            G392 S0
            M400
            G90
            M83
            M204 S5000
            G0 Z1.2 F4000
            G39.3 S1
            G0 Z1.2 F4000
            G392 S0
          
        M623
    
    M623
M623
; SKIPPABLE_END


G1 X137.55 Y139.85 F42000
G1 Z.8
G1 E.8 F1800
; FEATURE: Sparse infill
; LINE_WIDTH: 0.45
G1 F4289
M204 S6000
G1 X139.178 Y139.85 E.05401
G1 X139.85 Y139.178 E.0315
G1 X139.85 Y139.85 E.02227
G1 X116.15 Y116.15 E1.11179
G1 X116.15 Y116.822 E.02227
G1 X116.822 Y116.15 E.0315
G1 X118.45 Y116.15 E.05401
M204 S10000
G1 X116.15 Y126.126 F42000
G1 F4289
M204 S6000
G1 X116.15 Y124.498 E.05401
G1 X124.498 Y116.15 E.3916
G1 X123.826 Y116.15 E.02227
G1 X139.85 Y132.174 E.75169
G1 X139.85 Y131.502 E.02227
G1 X131.502 Y139.85 E.3916
G1 X132.174 Y139.85 E.02227
G1 X116.15 Y123.826 E.75169
G1 X116.15 Y122.198 E.05401
M204 S10000
G1 X126.126 Y139.85 F42000
G1 F4289
M204 S6000
G1 X124.498 Y139.85 E.05401
G1 X116.15 Y131.502 E.3916
G1 X116.15 Y132.174 E.02227
G1 X132.174 Y116.15 E.75169
G1 X131.502 Y116.15 E.02227
G1 X139.85 Y124.498 E.3916
G1 X139.85 Y123.826 E.02227
G1 X123.826 Y139.85 E.75169
G1 X122.198 Y139.85 E.05401
M204 S10000
G1 X139.85 Y118.45 F42000
G1 F4289
M204 S6000
G1 X139.85 Y116.822 E.05401
G1 X139.178 Y116.15 E.0315
G1 X139.85 Y116.15 E.02227
G1 X116.15 Y139.85 E1.11179
G1 X116.822 Y139.85 E.02227
G1 X116.15 Y139.178 E.0315
G1 X116.15 Y137.55 E.05401
; CHANGE_LAYER
; Z_HEIGHT: 1
; LAYER_HEIGHT: 0.2
; WIPE_START
G1 F16200
G1 X116.15 Y139.178 E-.61876
G1 X116.413 Y139.441 E-.14124
; WIPE_END
G1 E-.04 F1800
; layer num/total_layer_count: 5/128
; update layer progress
M73 L5
M991 S0 P4 ;notify layer change
; OBJECT_ID: 174
M204 S10000
G17
G3 Z1.2 I-.039 J1.216 P1  F42000
G1 X140.198 Y140.198 Z1.2
G1 Z1
G1 E.8 F1800
; FEATURE: Inner wall
G1 F4275
M204 S6000
G1 X115.802 Y140.198 E.80926
G1 X115.802 Y115.802 E.80926
G1 X140.198 Y115.802 E.80926
G1 X140.198 Y140.138 E.80727
M204 S10000
G1 X140.59 Y140.59 F42000
; FEATURE: Outer wall
; LINE_WIDTH: 0.42
G1 F4275
M204 S5000
G1 X115.41 Y140.59 E.77371
G1 X115.41 Y115.41 E.77371
G1 X140.59 Y115.41 E.77371
G1 X140.59 Y140.53 E.77187
; WIPE_START
G1 F12000
M204 S6000
G1 X138.59 Y140.535 E-.76
; WIPE_END
G1 E-.04 F1800
M204 S10000
G17
G3 Z1.4 I1.217 J0 P1  F42000
;===================== date: 20250206 =====================

; don't support timelapse gcode in spiral_mode and by object sequence for I3 structure printer
; SKIPPABLE_START
; SKIPTYPE: timelapse
M622.1 S1 ; for prev firmware, default turned on
M1002 judge_flag timelapse_record_flag
M622 J1
G92 E0
G1 Z1.4
G1 X0 Y128 F18000 ; move to safe pos
G1 X-48.2 F3000 ; move to safe pos
M400
M1004 S5 P1  ; external shutter
M400 P300
M971 S11 C11 O0
G92 E0
G1 X0 F18000
M623

; SKIPTYPE: head_wrap_detect
M622.1 S1
M1002 judge_flag g39_3rd_layer_detect_flag
M622 J1
    ; enable nozzle clog detect at 3rd layer
    


    M622.1 S1
    M1002 judge_flag g39_detection_flag
    M622 J1
      
        M622.1 S0
        M1002 judge_flag g39_mass_exceed_flag
        M622 J1
        
            G392 S0
            M400
            G90
            M83
            M204 S5000
            G0 Z1.4 F4000
            G39.3 S1
            G0 Z1.4 F4000
            G392 S0
          
        M623
    
    M623
M623
; SKIPPABLE_END


G1 X122.198 Y139.85 F42000
G1 Z1
G1 E.8 F1800
; FEATURE: Sparse infill
; LINE_WIDTH: 0.45
G1 F4275
M204 S6000
G1 X123.826 Y139.85 E.05401
G1 X139.85 Y123.826 E.75169
G1 X139.85 Y124.498 E.02227
G1 X131.502 Y116.15 E.3916
G1 X132.174 Y116.15 E.02227
G1 X116.15 Y132.174 E.75169
G1 X116.15 Y131.502 E.02227
G1 X124.498 Y139.85 E.3916
G1 X126.126 Y139.85 E.05401
M204 S10000
G1 X116.15 Y137.55 F42000
G1 F4275
M204 S6000
G1 X116.15 Y139.178 E.05401
G1 X116.822 Y139.85 E.0315
G1 X116.15 Y139.85 E.02227
G1 X139.85 Y116.15 E1.11179
M73 P27 R20
G1 X139.178 Y116.15 E.02227
G1 X139.85 Y116.822 E.0315
G1 X139.85 Y118.45 E.05401
M204 S10000
G1 X118.45 Y116.15 F42000
G1 F4275
M204 S6000
G1 X116.822 Y116.15 E.05401
G1 X116.15 Y116.822 E.0315
G1 X116.15 Y116.15 E.02227
G1 X139.85 Y139.85 E1.11179
G1 X139.85 Y139.178 E.02227
G1 X139.178 Y139.85 E.0315
G1 X137.55 Y139.85 E.05401
M204 S10000
G1 X116.15 Y122.198 F42000
G1 F4275
M204 S6000
G1 X116.15 Y123.826 E.05401
G1 X132.174 Y139.85 E.75169
G1 X131.502 Y139.85 E.02227
G1 X139.85 Y131.502 E.3916
G1 X139.85 Y132.174 E.02227
G1 X123.826 Y116.15 E.75169
G1 X124.498 Y116.15 E.02227
G1 X116.15 Y124.498 E.3916
G1 X116.15 Y126.126 E.05401
; CHANGE_LAYER
; Z_HEIGHT: 1.2
; LAYER_HEIGHT: 0.2
; WIPE_START
G1 F16200
G1 X116.15 Y124.498 E-.61876
G1 X116.413 Y124.235 E-.14124
; WIPE_END
G1 E-.04 F1800
; layer num/total_layer_count: 6/128
; update layer progress
M73 L6
M991 S0 P5 ;notify layer change
; OBJECT_ID: 174
M204 S10000
G17
G3 Z1.4 I-.678 J1.01 P1  F42000
G1 X140.198 Y140.198 Z1.4
G1 Z1.2
G1 E.8 F1800
; FEATURE: Inner wall
G1 F4294
M204 S6000
G1 X115.802 Y140.198 E.80926
G1 X115.802 Y115.802 E.80926
G1 X140.198 Y115.802 E.80926
G1 X140.198 Y140.138 E.80727
M204 S10000
G1 X140.59 Y140.59 F42000
; FEATURE: Outer wall
; LINE_WIDTH: 0.42
G1 F4294
M204 S5000
G1 X115.41 Y140.59 E.77371
G1 X115.41 Y115.41 E.77371
G1 X140.59 Y115.41 E.77371
G1 X140.59 Y140.53 E.77187
; WIPE_START
G1 F12000
M204 S6000
G1 X138.59 Y140.535 E-.76
; WIPE_END
G1 E-.04 F1800
M204 S10000
G17
G3 Z1.6 I1.217 J0 P1  F42000
;===================== date: 20250206 =====================

; don't support timelapse gcode in spiral_mode and by object sequence for I3 structure printer
; SKIPPABLE_START
; SKIPTYPE: timelapse
M622.1 S1 ; for prev firmware, default turned on
M1002 judge_flag timelapse_record_flag
M622 J1
G92 E0
G1 Z1.6
G1 X0 Y128 F18000 ; move to safe pos
G1 X-48.2 F3000 ; move to safe pos
M400
M1004 S5 P1  ; external shutter
M400 P300
M971 S11 C11 O0
G92 E0
G1 X0 F18000
M623

; SKIPTYPE: head_wrap_detect
M622.1 S1
M1002 judge_flag g39_3rd_layer_detect_flag
M622 J1
    ; enable nozzle clog detect at 3rd layer
    


    M622.1 S1
    M1002 judge_flag g39_detection_flag
    M622 J1
      
        M622.1 S0
        M1002 judge_flag g39_mass_exceed_flag
        M622 J1
        
            G392 S0
            M400
            G90
            M83
            M204 S5000
            G0 Z1.6 F4000
            G39.3 S1
            G0 Z1.6 F4000
            G392 S0
          
        M623
    
    M623
M623
; SKIPPABLE_END


G1 X137.55 Y139.85 F42000
G1 Z1.2
G1 E.8 F1800
; FEATURE: Sparse infill
; LINE_WIDTH: 0.45
G1 F4294
M204 S6000
G1 X139.178 Y139.85 E.05401
G1 X139.85 Y139.178 E.0315
G1 X139.85 Y139.85 E.02227
G1 X116.15 Y116.15 E1.11179
G1 X116.15 Y116.822 E.02227
G1 X116.822 Y116.15 E.0315
G1 X118.45 Y116.15 E.05401
M204 S10000
G1 X116.15 Y126.126 F42000
G1 F4294
M204 S6000
G1 X116.15 Y124.498 E.05401
G1 X124.498 Y116.15 E.3916
G1 X123.826 Y116.15 E.02227
G1 X139.85 Y132.174 E.75169
G1 X139.85 Y131.502 E.02227
G1 X131.502 Y139.85 E.3916
G1 X132.174 Y139.85 E.02227
G1 X116.15 Y123.826 E.75169
G1 X116.15 Y122.198 E.05401
M204 S10000
G1 X126.126 Y139.85 F42000
G1 F4294
M204 S6000
G1 X124.498 Y139.85 E.05401
G1 X116.15 Y131.502 E.3916
G1 X116.15 Y132.174 E.02227
G1 X132.174 Y116.15 E.75169
G1 X131.502 Y116.15 E.02227
G1 X139.85 Y124.498 E.3916
G1 X139.85 Y123.826 E.02227
G1 X123.826 Y139.85 E.75169
G1 X122.198 Y139.85 E.05401
M204 S10000
G1 X139.85 Y118.45 F42000
G1 F4294
M204 S6000
G1 X139.85 Y116.822 E.05401
G1 X139.178 Y116.15 E.0315
G1 X139.85 Y116.15 E.02227
G1 X116.15 Y139.85 E1.11179
G1 X116.822 Y139.85 E.02227
G1 X116.15 Y139.178 E.0315
G1 X116.15 Y137.55 E.05401
; CHANGE_LAYER
; Z_HEIGHT: 1.4
; LAYER_HEIGHT: 0.2
; WIPE_START
G1 F16200
G1 X116.15 Y139.178 E-.61876
G1 X116.413 Y139.441 E-.14124
; WIPE_END
G1 E-.04 F1800
; layer num/total_layer_count: 7/128
; update layer progress
M73 L7
M991 S0 P6 ;notify layer change
; OBJECT_ID: 174
M204 S10000
G17
G3 Z1.6 I-.039 J1.216 P1  F42000
G1 X140.198 Y140.198 Z1.6
G1 Z1.4
G1 E.8 F1800
; FEATURE: Inner wall
G1 F4275
M204 S6000
G1 X115.802 Y140.198 E.80926
G1 X115.802 Y115.802 E.80926
G1 X140.198 Y115.802 E.80926
G1 X140.198 Y140.138 E.80727
M204 S10000
G1 X140.59 Y140.59 F42000
; FEATURE: Outer wall
; LINE_WIDTH: 0.42
G1 F4275
M204 S5000
G1 X115.41 Y140.59 E.77371
G1 X115.41 Y115.41 E.77371
G1 X140.59 Y115.41 E.77371
G1 X140.59 Y140.53 E.77187
; WIPE_START
G1 F12000
M204 S6000
G1 X138.59 Y140.535 E-.76
; WIPE_END
G1 E-.04 F1800
M204 S10000
G17
G3 Z1.8 I1.217 J0 P1  F42000
;===================== date: 20250206 =====================

; don't support timelapse gcode in spiral_mode and by object sequence for I3 structure printer
; SKIPPABLE_START
; SKIPTYPE: timelapse
M622.1 S1 ; for prev firmware, default turned on
M1002 judge_flag timelapse_record_flag
M622 J1
G92 E0
G1 Z1.8
G1 X0 Y128 F18000 ; move to safe pos
G1 X-48.2 F3000 ; move to safe pos
M400
M1004 S5 P1  ; external shutter
M400 P300
M971 S11 C11 O0
G92 E0
G1 X0 F18000
M623

; SKIPTYPE: head_wrap_detect
M622.1 S1
M1002 judge_flag g39_3rd_layer_detect_flag
M622 J1
    ; enable nozzle clog detect at 3rd layer
    


    M622.1 S1
    M1002 judge_flag g39_detection_flag
    M622 J1
      
        M622.1 S0
        M1002 judge_flag g39_mass_exceed_flag
        M622 J1
        
            G392 S0
            M400
            G90
            M83
            M204 S5000
            G0 Z1.8 F4000
            G39.3 S1
            G0 Z1.8 F4000
            G392 S0
          
        M623
    
    M623
M623
; SKIPPABLE_END


G1 X122.198 Y139.85 F42000
G1 Z1.4
G1 E.8 F1800
; FEATURE: Sparse infill
; LINE_WIDTH: 0.45
G1 F4275
M204 S6000
M73 P27 R19
G1 X123.826 Y139.85 E.05401
G1 X139.85 Y123.826 E.75169
G1 X139.85 Y124.498 E.02227
G1 X131.502 Y116.15 E.3916
G1 X132.174 Y116.15 E.02227
M73 P28 R19
G1 X116.15 Y132.174 E.75169
G1 X116.15 Y131.502 E.02227
G1 X124.498 Y139.85 E.3916
G1 X126.126 Y139.85 E.05401
M204 S10000
G1 X116.15 Y137.55 F42000
G1 F4275
M204 S6000
G1 X116.15 Y139.178 E.05401
G1 X116.822 Y139.85 E.0315
G1 X116.15 Y139.85 E.02227
G1 X139.85 Y116.15 E1.11179
G1 X139.178 Y116.15 E.02227
G1 X139.85 Y116.822 E.0315
G1 X139.85 Y118.45 E.05401
M204 S10000
G1 X118.45 Y116.15 F42000
G1 F4275
M204 S6000
G1 X116.822 Y116.15 E.05401
G1 X116.15 Y116.822 E.0315
G1 X116.15 Y116.15 E.02227
G1 X139.85 Y139.85 E1.11179
G1 X139.85 Y139.178 E.02227
G1 X139.178 Y139.85 E.0315
G1 X137.55 Y139.85 E.05401
M204 S10000
G1 X116.15 Y122.198 F42000
G1 F4275
M204 S6000
G1 X116.15 Y123.826 E.05401
G1 X132.174 Y139.85 E.75169
G1 X131.502 Y139.85 E.02227
G1 X139.85 Y131.502 E.3916
G1 X139.85 Y132.174 E.02227
G1 X123.826 Y116.15 E.75169
G1 X124.498 Y116.15 E.02227
G1 X116.15 Y124.498 E.3916
G1 X116.15 Y126.126 E.05401
; CHANGE_LAYER
; Z_HEIGHT: 1.6
; LAYER_HEIGHT: 0.2
; WIPE_START
G1 F16200
G1 X116.15 Y124.498 E-.61876
G1 X116.413 Y124.235 E-.14124
; WIPE_END
G1 E-.04 F1800
; layer num/total_layer_count: 8/128
; update layer progress
M73 L8
M991 S0 P7 ;notify layer change
; OBJECT_ID: 174
M204 S10000
G17
G3 Z1.8 I-.678 J1.01 P1  F42000
G1 X140.198 Y140.198 Z1.8
G1 Z1.6
G1 E.8 F1800
; FEATURE: Inner wall
G1 F4294
M204 S6000
G1 X115.802 Y140.198 E.80926
G1 X115.802 Y115.802 E.80926
G1 X140.198 Y115.802 E.80926
G1 X140.198 Y140.138 E.80727
M204 S10000
G1 X140.59 Y140.59 F42000
; FEATURE: Outer wall
; LINE_WIDTH: 0.42
G1 F4294
M204 S5000
G1 X115.41 Y140.59 E.77371
G1 X115.41 Y115.41 E.77371
G1 X140.59 Y115.41 E.77371
G1 X140.59 Y140.53 E.77187
; WIPE_START
G1 F12000
M204 S6000
G1 X138.59 Y140.535 E-.76
; WIPE_END
G1 E-.04 F1800
M204 S10000
G17
G3 Z2 I1.217 J0 P1  F42000
;===================== date: 20250206 =====================

; don't support timelapse gcode in spiral_mode and by object sequence for I3 structure printer
; SKIPPABLE_START
; SKIPTYPE: timelapse
M622.1 S1 ; for prev firmware, default turned on
M1002 judge_flag timelapse_record_flag
M622 J1
G92 E0
G1 Z2
G1 X0 Y128 F18000 ; move to safe pos
G1 X-48.2 F3000 ; move to safe pos
M400
M1004 S5 P1  ; external shutter
M400 P300
M971 S11 C11 O0
G92 E0
G1 X0 F18000
M623

; SKIPTYPE: head_wrap_detect
M622.1 S1
M1002 judge_flag g39_3rd_layer_detect_flag
M622 J1
    ; enable nozzle clog detect at 3rd layer
    


    M622.1 S1
    M1002 judge_flag g39_detection_flag
    M622 J1
      
        M622.1 S0
        M1002 judge_flag g39_mass_exceed_flag
        M622 J1
        
            G392 S0
            M400
            G90
            M83
            M204 S5000
            G0 Z2 F4000
            G39.3 S1
            G0 Z2 F4000
            G392 S0
          
        M623
    
    M623
M623
; SKIPPABLE_END


G1 X137.55 Y139.85 F42000
G1 Z1.6
G1 E.8 F1800
; FEATURE: Sparse infill
; LINE_WIDTH: 0.45
G1 F4294
M204 S6000
G1 X139.178 Y139.85 E.05401
G1 X139.85 Y139.178 E.0315
G1 X139.85 Y139.85 E.02227
G1 X116.15 Y116.15 E1.11179
G1 X116.15 Y116.822 E.02227
G1 X116.822 Y116.15 E.0315
G1 X118.45 Y116.15 E.05401
M204 S10000
G1 X116.15 Y126.126 F42000
G1 F4294
M204 S6000
G1 X116.15 Y124.498 E.05401
G1 X124.498 Y116.15 E.3916
G1 X123.826 Y116.15 E.02227
G1 X139.85 Y132.174 E.75169
G1 X139.85 Y131.502 E.02227
G1 X131.502 Y139.85 E.3916
G1 X132.174 Y139.85 E.02227
G1 X116.15 Y123.826 E.75169
G1 X116.15 Y122.198 E.05401
M204 S10000
G1 X126.126 Y139.85 F42000
G1 F4294
M204 S6000
G1 X124.498 Y139.85 E.05401
G1 X116.15 Y131.502 E.3916
G1 X116.15 Y132.174 E.02227
G1 X132.174 Y116.15 E.75169
G1 X131.502 Y116.15 E.02227
G1 X139.85 Y124.498 E.3916
G1 X139.85 Y123.826 E.02227
G1 X123.826 Y139.85 E.75169
G1 X122.198 Y139.85 E.05401
M204 S10000
G1 X139.85 Y118.45 F42000
G1 F4294
M204 S6000
G1 X139.85 Y116.822 E.05401
G1 X139.178 Y116.15 E.0315
G1 X139.85 Y116.15 E.02227
G1 X116.15 Y139.85 E1.11179
G1 X116.822 Y139.85 E.02227
G1 X116.15 Y139.178 E.0315
G1 X116.15 Y137.55 E.05401
; CHANGE_LAYER
; Z_HEIGHT: 1.8
; LAYER_HEIGHT: 0.2
; WIPE_START
G1 F16200
G1 X116.15 Y139.178 E-.61876
G1 X116.413 Y139.441 E-.14124
; WIPE_END
G1 E-.04 F1800
; layer num/total_layer_count: 9/128
; update layer progress
M73 L9
M991 S0 P8 ;notify layer change
; OBJECT_ID: 174
M204 S10000
G17
G3 Z2 I-.039 J1.216 P1  F42000
G1 X140.198 Y140.198 Z2
G1 Z1.8
G1 E.8 F1800
; FEATURE: Inner wall
G1 F4275
M204 S6000
G1 X115.802 Y140.198 E.80926
G1 X115.802 Y115.802 E.80926
G1 X140.198 Y115.802 E.80926
G1 X140.198 Y140.138 E.80727
M204 S10000
G1 X140.59 Y140.59 F42000
; FEATURE: Outer wall
; LINE_WIDTH: 0.42
G1 F4275
M204 S5000
G1 X115.41 Y140.59 E.77371
G1 X115.41 Y115.41 E.77371
G1 X140.59 Y115.41 E.77371
G1 X140.59 Y140.53 E.77187
; WIPE_START
M73 P29 R19
G1 F12000
M204 S6000
G1 X138.59 Y140.535 E-.76
; WIPE_END
G1 E-.04 F1800
M204 S10000
G17
G3 Z2.2 I1.217 J0 P1  F42000
;===================== date: 20250206 =====================

; don't support timelapse gcode in spiral_mode and by object sequence for I3 structure printer
; SKIPPABLE_START
; SKIPTYPE: timelapse
M622.1 S1 ; for prev firmware, default turned on
M1002 judge_flag timelapse_record_flag
M622 J1
G92 E0
G1 Z2.2
G1 X0 Y128 F18000 ; move to safe pos
G1 X-48.2 F3000 ; move to safe pos
M400
M1004 S5 P1  ; external shutter
M400 P300
M971 S11 C11 O0
G92 E0
G1 X0 F18000
M623

; SKIPTYPE: head_wrap_detect
M622.1 S1
M1002 judge_flag g39_3rd_layer_detect_flag
M622 J1
    ; enable nozzle clog detect at 3rd layer
    


    M622.1 S1
    M1002 judge_flag g39_detection_flag
    M622 J1
      
        M622.1 S0
        M1002 judge_flag g39_mass_exceed_flag
        M622 J1
        
            G392 S0
            M400
            G90
            M83
            M204 S5000
            G0 Z2.2 F4000
            G39.3 S1
            G0 Z2.2 F4000
            G392 S0
          
        M623
    
    M623
M623
; SKIPPABLE_END


G1 X122.198 Y139.85 F42000
G1 Z1.8
G1 E.8 F1800
; FEATURE: Sparse infill
; LINE_WIDTH: 0.45
G1 F4275
M204 S6000
G1 X123.826 Y139.85 E.05401
G1 X139.85 Y123.826 E.75169
G1 X139.85 Y124.498 E.02227
G1 X131.502 Y116.15 E.3916
G1 X132.174 Y116.15 E.02227
G1 X116.15 Y132.174 E.75169
G1 X116.15 Y131.502 E.02227
G1 X124.498 Y139.85 E.3916
G1 X126.126 Y139.85 E.05401
M204 S10000
G1 X116.15 Y137.55 F42000
G1 F4275
M204 S6000
G1 X116.15 Y139.178 E.05401
G1 X116.822 Y139.85 E.0315
G1 X116.15 Y139.85 E.02227
G1 X139.85 Y116.15 E1.11179
G1 X139.178 Y116.15 E.02227
G1 X139.85 Y116.822 E.0315
G1 X139.85 Y118.45 E.05401
M204 S10000
G1 X118.45 Y116.15 F42000
G1 F4275
M204 S6000
G1 X116.822 Y116.15 E.05401
G1 X116.15 Y116.822 E.0315
G1 X116.15 Y116.15 E.02227
G1 X139.85 Y139.85 E1.11179
G1 X139.85 Y139.178 E.02227
G1 X139.178 Y139.85 E.0315
G1 X137.55 Y139.85 E.05401
M204 S10000
G1 X116.15 Y122.198 F42000
G1 F4275
M204 S6000
G1 X116.15 Y123.826 E.05401
G1 X132.174 Y139.85 E.75169
G1 X131.502 Y139.85 E.02227
G1 X139.85 Y131.502 E.3916
G1 X139.85 Y132.174 E.02227
G1 X123.826 Y116.15 E.75169
G1 X124.498 Y116.15 E.02227
G1 X116.15 Y124.498 E.3916
G1 X116.15 Y126.126 E.05401
; CHANGE_LAYER
; Z_HEIGHT: 2
; LAYER_HEIGHT: 0.2
; WIPE_START
G1 F16200
G1 X116.15 Y124.498 E-.61876
G1 X116.413 Y124.235 E-.14124
; WIPE_END
G1 E-.04 F1800
; layer num/total_layer_count: 10/128
; update layer progress
M73 L10
M991 S0 P9 ;notify layer change
; OBJECT_ID: 174
M204 S10000
G17
G3 Z2.2 I-.678 J1.01 P1  F42000
G1 X140.198 Y140.198 Z2.2
G1 Z2
G1 E.8 F1800
; FEATURE: Inner wall
G1 F4294
M204 S6000
G1 X115.802 Y140.198 E.80926
G1 X115.802 Y115.802 E.80926
G1 X140.198 Y115.802 E.80926
G1 X140.198 Y140.138 E.80727
M204 S10000
G1 X140.59 Y140.59 F42000
; FEATURE: Outer wall
; LINE_WIDTH: 0.42
G1 F4294
M204 S5000
G1 X115.41 Y140.59 E.77371
G1 X115.41 Y115.41 E.77371
G1 X140.59 Y115.41 E.77371
G1 X140.59 Y140.53 E.77187
; WIPE_START
G1 F12000
M204 S6000
G1 X138.59 Y140.535 E-.76
; WIPE_END
G1 E-.04 F1800
M204 S10000
G17
G3 Z2.4 I1.217 J0 P1  F42000
;===================== date: 20250206 =====================

; don't support timelapse gcode in spiral_mode and by object sequence for I3 structure printer
; SKIPPABLE_START
; SKIPTYPE: timelapse
M622.1 S1 ; for prev firmware, default turned on
M1002 judge_flag timelapse_record_flag
M622 J1
G92 E0
G1 Z2.4
G1 X0 Y128 F18000 ; move to safe pos
G1 X-48.2 F3000 ; move to safe pos
M400
M1004 S5 P1  ; external shutter
M400 P300
M971 S11 C11 O0
G92 E0
G1 X0 F18000
M623

; SKIPTYPE: head_wrap_detect
M622.1 S1
M1002 judge_flag g39_3rd_layer_detect_flag
M622 J1
    ; enable nozzle clog detect at 3rd layer
    


    M622.1 S1
    M1002 judge_flag g39_detection_flag
    M622 J1
      
        M622.1 S0
        M1002 judge_flag g39_mass_exceed_flag
        M622 J1
        
            G392 S0
            M400
            G90
            M83
            M204 S5000
            G0 Z2.4 F4000
            G39.3 S1
            G0 Z2.4 F4000
            G392 S0
          
        M623
    
    M623
M623
; SKIPPABLE_END


G1 X137.55 Y139.85 F42000
G1 Z2
G1 E.8 F1800
; FEATURE: Sparse infill
; LINE_WIDTH: 0.45
G1 F4294
M204 S6000
G1 X139.178 Y139.85 E.05401
G1 X139.85 Y139.178 E.0315
G1 X139.85 Y139.85 E.02227
G1 X116.15 Y116.15 E1.11179
G1 X116.15 Y116.822 E.02227
G1 X116.822 Y116.15 E.0315
G1 X118.45 Y116.15 E.05401
M204 S10000
G1 X116.15 Y126.126 F42000
G1 F4294
M204 S6000
G1 X116.15 Y124.498 E.05401
G1 X124.498 Y116.15 E.3916
G1 X123.826 Y116.15 E.02227
G1 X139.85 Y132.174 E.75169
G1 X139.85 Y131.502 E.02227
G1 X131.502 Y139.85 E.3916
G1 X132.174 Y139.85 E.02227
G1 X116.15 Y123.826 E.75169
G1 X116.15 Y122.198 E.05401
M204 S10000
G1 X126.126 Y139.85 F42000
G1 F4294
M204 S6000
G1 X124.498 Y139.85 E.05401
G1 X116.15 Y131.502 E.3916
G1 X116.15 Y132.174 E.02227
G1 X132.174 Y116.15 E.75169
G1 X131.502 Y116.15 E.02227
G1 X139.85 Y124.498 E.3916
G1 X139.85 Y123.826 E.02227
G1 X123.826 Y139.85 E.75169
G1 X122.198 Y139.85 E.05401
M204 S10000
G1 X139.85 Y118.45 F42000
G1 F4294
M204 S6000
G1 X139.85 Y116.822 E.05401
G1 X139.178 Y116.15 E.0315
G1 X139.85 Y116.15 E.02227
G1 X116.15 Y139.85 E1.11179
G1 X116.822 Y139.85 E.02227
G1 X116.15 Y139.178 E.0315
G1 X116.15 Y137.55 E.05401
; CHANGE_LAYER
; Z_HEIGHT: 2.2
; LAYER_HEIGHT: 0.2
; WIPE_START
G1 F16200
M73 P30 R19
G1 X116.15 Y139.178 E-.61876
G1 X116.413 Y139.441 E-.14124
; WIPE_END
G1 E-.04 F1800
; layer num/total_layer_count: 11/128
; update layer progress
M73 L11
M991 S0 P10 ;notify layer change
; OBJECT_ID: 174
M204 S10000
G17
G3 Z2.4 I-.039 J1.216 P1  F42000
G1 X140.198 Y140.198 Z2.4
G1 Z2.2
G1 E.8 F1800
; FEATURE: Inner wall
G1 F4275
M204 S6000
G1 X115.802 Y140.198 E.80926
G1 X115.802 Y115.802 E.80926
G1 X140.198 Y115.802 E.80926
G1 X140.198 Y140.138 E.80727
M204 S10000
G1 X140.59 Y140.59 F42000
; FEATURE: Outer wall
; LINE_WIDTH: 0.42
G1 F4275
M204 S5000
G1 X115.41 Y140.59 E.77371
G1 X115.41 Y115.41 E.77371
G1 X140.59 Y115.41 E.77371
G1 X140.59 Y140.53 E.77187
; WIPE_START
G1 F12000
M204 S6000
G1 X138.59 Y140.535 E-.76
; WIPE_END
G1 E-.04 F1800
M204 S10000
G17
G3 Z2.6 I1.217 J0 P1  F42000
;===================== date: 20250206 =====================

; don't support timelapse gcode in spiral_mode and by object sequence for I3 structure printer
; SKIPPABLE_START
; SKIPTYPE: timelapse
M622.1 S1 ; for prev firmware, default turned on
M1002 judge_flag timelapse_record_flag
M622 J1
G92 E0
G1 Z2.6
G1 X0 Y128 F18000 ; move to safe pos
G1 X-48.2 F3000 ; move to safe pos
M400
M1004 S5 P1  ; external shutter
M400 P300
M971 S11 C11 O0
G92 E0
G1 X0 F18000
M623

; SKIPTYPE: head_wrap_detect
M622.1 S1
M1002 judge_flag g39_3rd_layer_detect_flag
M622 J1
    ; enable nozzle clog detect at 3rd layer
    


    M622.1 S1
    M1002 judge_flag g39_detection_flag
    M622 J1
      
        M622.1 S0
        M1002 judge_flag g39_mass_exceed_flag
        M622 J1
        
            G392 S0
            M400
            G90
            M83
            M204 S5000
            G0 Z2.6 F4000
            G39.3 S1
            G0 Z2.6 F4000
            G392 S0
          
        M623
    
    M623
M623
; SKIPPABLE_END


G1 X122.198 Y139.85 F42000
G1 Z2.2
G1 E.8 F1800
; FEATURE: Sparse infill
; LINE_WIDTH: 0.45
G1 F4275
M204 S6000
G1 X123.826 Y139.85 E.05401
G1 X139.85 Y123.826 E.75169
G1 X139.85 Y124.498 E.02227
G1 X131.502 Y116.15 E.3916
G1 X132.174 Y116.15 E.02227
G1 X116.15 Y132.174 E.75169
G1 X116.15 Y131.502 E.02227
G1 X124.498 Y139.85 E.3916
G1 X126.126 Y139.85 E.05401
M204 S10000
G1 X116.15 Y137.55 F42000
G1 F4275
M204 S6000
G1 X116.15 Y139.178 E.05401
G1 X116.822 Y139.85 E.0315
G1 X116.15 Y139.85 E.02227
G1 X139.85 Y116.15 E1.11179
G1 X139.178 Y116.15 E.02227
G1 X139.85 Y116.822 E.0315
G1 X139.85 Y118.45 E.05401
M204 S10000
G1 X118.45 Y116.15 F42000
G1 F4275
M204 S6000
G1 X116.822 Y116.15 E.05401
G1 X116.15 Y116.822 E.0315
G1 X116.15 Y116.15 E.02227
G1 X139.85 Y139.85 E1.11179
G1 X139.85 Y139.178 E.02227
G1 X139.178 Y139.85 E.0315
G1 X137.55 Y139.85 E.05401
M204 S10000
G1 X116.15 Y122.198 F42000
G1 F4275
M204 S6000
G1 X116.15 Y123.826 E.05401
G1 X132.174 Y139.85 E.75169
G1 X131.502 Y139.85 E.02227
G1 X139.85 Y131.502 E.3916
G1 X139.85 Y132.174 E.02227
G1 X123.826 Y116.15 E.75169
G1 X124.498 Y116.15 E.02227
G1 X116.15 Y124.498 E.3916
G1 X116.15 Y126.126 E.05401
; CHANGE_LAYER
; Z_HEIGHT: 2.4
; LAYER_HEIGHT: 0.2
; WIPE_START
G1 F16200
G1 X116.15 Y124.498 E-.61876
G1 X116.413 Y124.235 E-.14124
; WIPE_END
G1 E-.04 F1800
; layer num/total_layer_count: 12/128
; update layer progress
M73 L12
M991 S0 P11 ;notify layer change
; OBJECT_ID: 174
M204 S10000
G17
G3 Z2.6 I-.678 J1.01 P1  F42000
G1 X140.198 Y140.198 Z2.6
G1 Z2.4
G1 E.8 F1800
; FEATURE: Inner wall
G1 F4294
M204 S6000
G1 X115.802 Y140.198 E.80926
G1 X115.802 Y115.802 E.80926
G1 X140.198 Y115.802 E.80926
G1 X140.198 Y140.138 E.80727
M204 S10000
G1 X140.59 Y140.59 F42000
; FEATURE: Outer wall
; LINE_WIDTH: 0.42
G1 F4294
M204 S5000
G1 X115.41 Y140.59 E.77371
G1 X115.41 Y115.41 E.77371
G1 X140.59 Y115.41 E.77371
G1 X140.59 Y140.53 E.77187
; WIPE_START
G1 F12000
M204 S6000
G1 X138.59 Y140.535 E-.76
; WIPE_END
G1 E-.04 F1800
M204 S10000
G17
G3 Z2.8 I1.217 J0 P1  F42000
;===================== date: 20250206 =====================

; don't support timelapse gcode in spiral_mode and by object sequence for I3 structure printer
; SKIPPABLE_START
; SKIPTYPE: timelapse
M622.1 S1 ; for prev firmware, default turned on
M1002 judge_flag timelapse_record_flag
M622 J1
G92 E0
G1 Z2.8
G1 X0 Y128 F18000 ; move to safe pos
G1 X-48.2 F3000 ; move to safe pos
M400
M1004 S5 P1  ; external shutter
M400 P300
M971 S11 C11 O0
G92 E0
G1 X0 F18000
M623

; SKIPTYPE: head_wrap_detect
M622.1 S1
M1002 judge_flag g39_3rd_layer_detect_flag
M622 J1
    ; enable nozzle clog detect at 3rd layer
    


    M622.1 S1
    M1002 judge_flag g39_detection_flag
    M622 J1
      
        M622.1 S0
        M1002 judge_flag g39_mass_exceed_flag
        M622 J1
        
            G392 S0
            M400
            G90
            M83
            M204 S5000
            G0 Z2.8 F4000
            G39.3 S1
            G0 Z2.8 F4000
            G392 S0
          
        M623
    
    M623
M623
; SKIPPABLE_END


G1 X137.55 Y139.85 F42000
G1 Z2.4
G1 E.8 F1800
; FEATURE: Sparse infill
; LINE_WIDTH: 0.45
G1 F4294
M204 S6000
G1 X139.178 Y139.85 E.05401
G1 X139.85 Y139.178 E.0315
G1 X139.85 Y139.85 E.02227
G1 X116.15 Y116.15 E1.11179
G1 X116.15 Y116.822 E.02227
G1 X116.822 Y116.15 E.0315
G1 X118.45 Y116.15 E.05401
M204 S10000
G1 X116.15 Y126.126 F42000
G1 F4294
M204 S6000
G1 X116.15 Y124.498 E.05401
G1 X124.498 Y116.15 E.3916
G1 X123.826 Y116.15 E.02227
G1 X139.85 Y132.174 E.75169
G1 X139.85 Y131.502 E.02227
G1 X131.502 Y139.85 E.3916
G1 X132.174 Y139.85 E.02227
G1 X116.15 Y123.826 E.75169
G1 X116.15 Y122.198 E.05401
M204 S10000
G1 X126.126 Y139.85 F42000
G1 F4294
M204 S6000
G1 X124.498 Y139.85 E.05401
G1 X116.15 Y131.502 E.3916
G1 X116.15 Y132.174 E.02227
G1 X132.174 Y116.15 E.75169
G1 X131.502 Y116.15 E.02227
G1 X139.85 Y124.498 E.3916
G1 X139.85 Y123.826 E.02227
G1 X123.826 Y139.85 E.75169
G1 X122.198 Y139.85 E.05401
M204 S10000
G1 X139.85 Y118.45 F42000
G1 F4294
M204 S6000
G1 X139.85 Y116.822 E.05401
G1 X139.178 Y116.15 E.0315
G1 X139.85 Y116.15 E.02227
G1 X116.15 Y139.85 E1.11179
G1 X116.822 Y139.85 E.02227
G1 X116.15 Y139.178 E.0315
G1 X116.15 Y137.55 E.05401
; CHANGE_LAYER
; Z_HEIGHT: 2.6
; LAYER_HEIGHT: 0.2
; WIPE_START
M73 P31 R19
G1 F16200
G1 X116.15 Y139.178 E-.61876
G1 X116.413 Y139.441 E-.14124
; WIPE_END
G1 E-.04 F1800
; layer num/total_layer_count: 13/128
; update layer progress
M73 L13
M991 S0 P12 ;notify layer change
; OBJECT_ID: 174
M204 S10000
G17
G3 Z2.8 I-.039 J1.216 P1  F42000
G1 X140.198 Y140.198 Z2.8
G1 Z2.6
G1 E.8 F1800
; FEATURE: Inner wall
G1 F4275
M204 S6000
G1 X115.802 Y140.198 E.80926
G1 X115.802 Y115.802 E.80926
G1 X140.198 Y115.802 E.80926
G1 X140.198 Y140.138 E.80727
M204 S10000
G1 X140.59 Y140.59 F42000
; FEATURE: Outer wall
; LINE_WIDTH: 0.42
G1 F4275
M204 S5000
G1 X115.41 Y140.59 E.77371
G1 X115.41 Y115.41 E.77371
G1 X140.59 Y115.41 E.77371
G1 X140.59 Y140.53 E.77187
; WIPE_START
G1 F12000
M204 S6000
G1 X138.59 Y140.535 E-.76
; WIPE_END
G1 E-.04 F1800
M204 S10000
G17
G3 Z3 I1.217 J0 P1  F42000
;===================== date: 20250206 =====================

; don't support timelapse gcode in spiral_mode and by object sequence for I3 structure printer
; SKIPPABLE_START
; SKIPTYPE: timelapse
M622.1 S1 ; for prev firmware, default turned on
M1002 judge_flag timelapse_record_flag
M622 J1
G92 E0
G1 Z3
G1 X0 Y128 F18000 ; move to safe pos
G1 X-48.2 F3000 ; move to safe pos
M400
M1004 S5 P1  ; external shutter
M400 P300
M971 S11 C11 O0
G92 E0
G1 X0 F18000
M623

; SKIPTYPE: head_wrap_detect
M622.1 S1
M1002 judge_flag g39_3rd_layer_detect_flag
M622 J1
    ; enable nozzle clog detect at 3rd layer
    


    M622.1 S1
    M1002 judge_flag g39_detection_flag
    M622 J1
      
        M622.1 S0
        M1002 judge_flag g39_mass_exceed_flag
        M622 J1
        
            G392 S0
            M400
            G90
            M83
            M204 S5000
            G0 Z3 F4000
            G39.3 S1
            G0 Z3 F4000
            G392 S0
          
        M623
    
    M623
M623
; SKIPPABLE_END


G1 X122.198 Y139.85 F42000
G1 Z2.6
G1 E.8 F1800
; FEATURE: Sparse infill
; LINE_WIDTH: 0.45
G1 F4275
M204 S6000
G1 X123.826 Y139.85 E.05401
G1 X139.85 Y123.826 E.75169
G1 X139.85 Y124.498 E.02227
G1 X131.502 Y116.15 E.3916
G1 X132.174 Y116.15 E.02227
G1 X116.15 Y132.174 E.75169
G1 X116.15 Y131.502 E.02227
G1 X124.498 Y139.85 E.3916
G1 X126.126 Y139.85 E.05401
M204 S10000
G1 X116.15 Y137.55 F42000
G1 F4275
M204 S6000
G1 X116.15 Y139.178 E.05401
G1 X116.822 Y139.85 E.0315
G1 X116.15 Y139.85 E.02227
G1 X139.85 Y116.15 E1.11179
G1 X139.178 Y116.15 E.02227
G1 X139.85 Y116.822 E.0315
G1 X139.85 Y118.45 E.05401
M204 S10000
G1 X118.45 Y116.15 F42000
G1 F4275
M204 S6000
G1 X116.822 Y116.15 E.05401
G1 X116.15 Y116.822 E.0315
G1 X116.15 Y116.15 E.02227
G1 X139.85 Y139.85 E1.11179
G1 X139.85 Y139.178 E.02227
G1 X139.178 Y139.85 E.0315
G1 X137.55 Y139.85 E.05401
M204 S10000
G1 X116.15 Y122.198 F42000
G1 F4275
M204 S6000
G1 X116.15 Y123.826 E.05401
G1 X132.174 Y139.85 E.75169
G1 X131.502 Y139.85 E.02227
G1 X139.85 Y131.502 E.3916
G1 X139.85 Y132.174 E.02227
G1 X123.826 Y116.15 E.75169
G1 X124.498 Y116.15 E.02227
G1 X116.15 Y124.498 E.3916
G1 X116.15 Y126.126 E.05401
; CHANGE_LAYER
; Z_HEIGHT: 2.8
; LAYER_HEIGHT: 0.2
; WIPE_START
G1 F16200
G1 X116.15 Y124.498 E-.61876
G1 X116.413 Y124.235 E-.14124
; WIPE_END
M73 P31 R18
G1 E-.04 F1800
; layer num/total_layer_count: 14/128
; update layer progress
M73 L14
M991 S0 P13 ;notify layer change
; OBJECT_ID: 174
M204 S10000
G17
G3 Z3 I-.678 J1.01 P1  F42000
G1 X140.198 Y140.198 Z3
G1 Z2.8
G1 E.8 F1800
; FEATURE: Inner wall
G1 F4294
M204 S6000
G1 X115.802 Y140.198 E.80926
G1 X115.802 Y115.802 E.80926
G1 X140.198 Y115.802 E.80926
G1 X140.198 Y140.138 E.80727
M204 S10000
G1 X140.59 Y140.59 F42000
; FEATURE: Outer wall
; LINE_WIDTH: 0.42
G1 F4294
M204 S5000
G1 X115.41 Y140.59 E.77371
G1 X115.41 Y115.41 E.77371
G1 X140.59 Y115.41 E.77371
G1 X140.59 Y140.53 E.77187
; WIPE_START
G1 F12000
M204 S6000
G1 X138.59 Y140.535 E-.76
; WIPE_END
G1 E-.04 F1800
M204 S10000
G17
G3 Z3.2 I1.217 J0 P1  F42000
;===================== date: 20250206 =====================

; don't support timelapse gcode in spiral_mode and by object sequence for I3 structure printer
; SKIPPABLE_START
; SKIPTYPE: timelapse
M622.1 S1 ; for prev firmware, default turned on
M1002 judge_flag timelapse_record_flag
M622 J1
G92 E0
G1 Z3.2
G1 X0 Y128 F18000 ; move to safe pos
G1 X-48.2 F3000 ; move to safe pos
M400
M1004 S5 P1  ; external shutter
M400 P300
M971 S11 C11 O0
G92 E0
G1 X0 F18000
M623

; SKIPTYPE: head_wrap_detect
M622.1 S1
M1002 judge_flag g39_3rd_layer_detect_flag
M622 J1
    ; enable nozzle clog detect at 3rd layer
    


    M622.1 S1
    M1002 judge_flag g39_detection_flag
    M622 J1
      
        M622.1 S0
        M1002 judge_flag g39_mass_exceed_flag
        M622 J1
        
            G392 S0
            M400
            G90
            M83
            M204 S5000
            G0 Z3.2 F4000
            G39.3 S1
            G0 Z3.2 F4000
            G392 S0
          
        M623
    
    M623
M623
; SKIPPABLE_END


G1 X137.55 Y139.85 F42000
G1 Z2.8
G1 E.8 F1800
; FEATURE: Sparse infill
; LINE_WIDTH: 0.45
G1 F4294
M204 S6000
G1 X139.178 Y139.85 E.05401
G1 X139.85 Y139.178 E.0315
G1 X139.85 Y139.85 E.02227
G1 X116.15 Y116.15 E1.11179
G1 X116.15 Y116.822 E.02227
G1 X116.822 Y116.15 E.0315
G1 X118.45 Y116.15 E.05401
M204 S10000
G1 X116.15 Y126.126 F42000
G1 F4294
M204 S6000
G1 X116.15 Y124.498 E.05401
G1 X124.498 Y116.15 E.3916
G1 X123.826 Y116.15 E.02227
G1 X139.85 Y132.174 E.75169
G1 X139.85 Y131.502 E.02227
G1 X131.502 Y139.85 E.3916
G1 X132.174 Y139.85 E.02227
G1 X116.15 Y123.826 E.75169
G1 X116.15 Y122.198 E.05401
M204 S10000
G1 X126.126 Y139.85 F42000
G1 F4294
M204 S6000
G1 X124.498 Y139.85 E.05401
G1 X116.15 Y131.502 E.3916
G1 X116.15 Y132.174 E.02227
G1 X132.174 Y116.15 E.75169
G1 X131.502 Y116.15 E.02227
G1 X139.85 Y124.498 E.3916
G1 X139.85 Y123.826 E.02227
G1 X123.826 Y139.85 E.75169
G1 X122.198 Y139.85 E.05401
M204 S10000
G1 X139.85 Y118.45 F42000
M73 P32 R18
G1 F4294
M204 S6000
G1 X139.85 Y116.822 E.05401
G1 X139.178 Y116.15 E.0315
G1 X139.85 Y116.15 E.02227
G1 X116.15 Y139.85 E1.11179
G1 X116.822 Y139.85 E.02227
G1 X116.15 Y139.178 E.0315
G1 X116.15 Y137.55 E.05401
; CHANGE_LAYER
; Z_HEIGHT: 3
; LAYER_HEIGHT: 0.2
; WIPE_START
G1 F16200
G1 X116.15 Y139.178 E-.61876
G1 X116.413 Y139.441 E-.14124
; WIPE_END
G1 E-.04 F1800
; layer num/total_layer_count: 15/128
; update layer progress
M73 L15
M991 S0 P14 ;notify layer change
; OBJECT_ID: 174
M204 S10000
G17
G3 Z3.2 I-.039 J1.216 P1  F42000
G1 X140.198 Y140.198 Z3.2
G1 Z3
G1 E.8 F1800
; FEATURE: Inner wall
G1 F4275
M204 S6000
G1 X115.802 Y140.198 E.80926
G1 X115.802 Y115.802 E.80926
G1 X140.198 Y115.802 E.80926
G1 X140.198 Y140.138 E.80727
M204 S10000
G1 X140.59 Y140.59 F42000
; FEATURE: Outer wall
; LINE_WIDTH: 0.42
G1 F4275
M204 S5000
G1 X115.41 Y140.59 E.77371
G1 X115.41 Y115.41 E.77371
G1 X140.59 Y115.41 E.77371
G1 X140.59 Y140.53 E.77187
; WIPE_START
G1 F12000
M204 S6000
G1 X138.59 Y140.535 E-.76
; WIPE_END
G1 E-.04 F1800
M204 S10000
G17
G3 Z3.4 I1.217 J0 P1  F42000
;===================== date: 20250206 =====================

; don't support timelapse gcode in spiral_mode and by object sequence for I3 structure printer
; SKIPPABLE_START
; SKIPTYPE: timelapse
M622.1 S1 ; for prev firmware, default turned on
M1002 judge_flag timelapse_record_flag
M622 J1
G92 E0
G1 Z3.4
G1 X0 Y128 F18000 ; move to safe pos
G1 X-48.2 F3000 ; move to safe pos
M400
M1004 S5 P1  ; external shutter
M400 P300
M971 S11 C11 O0
G92 E0
G1 X0 F18000
M623

; SKIPTYPE: head_wrap_detect
M622.1 S1
M1002 judge_flag g39_3rd_layer_detect_flag
M622 J1
    ; enable nozzle clog detect at 3rd layer
    


    M622.1 S1
    M1002 judge_flag g39_detection_flag
    M622 J1
      
        M622.1 S0
        M1002 judge_flag g39_mass_exceed_flag
        M622 J1
        
            G392 S0
            M400
            G90
            M83
            M204 S5000
            G0 Z3.4 F4000
            G39.3 S1
            G0 Z3.4 F4000
            G392 S0
          
        M623
    
    M623
M623
; SKIPPABLE_END


G1 X122.198 Y139.85 F42000
G1 Z3
G1 E.8 F1800
; FEATURE: Sparse infill
; LINE_WIDTH: 0.45
G1 F4275
M204 S6000
G1 X123.826 Y139.85 E.05401
G1 X139.85 Y123.826 E.75169
G1 X139.85 Y124.498 E.02227
G1 X131.502 Y116.15 E.3916
G1 X132.174 Y116.15 E.02227
G1 X116.15 Y132.174 E.75169
G1 X116.15 Y131.502 E.02227
G1 X124.498 Y139.85 E.3916
G1 X126.126 Y139.85 E.05401
M204 S10000
G1 X116.15 Y137.55 F42000
G1 F4275
M204 S6000
G1 X116.15 Y139.178 E.05401
G1 X116.822 Y139.85 E.0315
G1 X116.15 Y139.85 E.02227
G1 X139.85 Y116.15 E1.11179
G1 X139.178 Y116.15 E.02227
G1 X139.85 Y116.822 E.0315
G1 X139.85 Y118.45 E.05401
M204 S10000
G1 X118.45 Y116.15 F42000
G1 F4275
M204 S6000
G1 X116.822 Y116.15 E.05401
G1 X116.15 Y116.822 E.0315
G1 X116.15 Y116.15 E.02227
G1 X139.85 Y139.85 E1.11179
G1 X139.85 Y139.178 E.02227
G1 X139.178 Y139.85 E.0315
G1 X137.55 Y139.85 E.05401
M204 S10000
G1 X116.15 Y122.198 F42000
G1 F4275
M204 S6000
G1 X116.15 Y123.826 E.05401
G1 X132.174 Y139.85 E.75169
G1 X131.502 Y139.85 E.02227
G1 X139.85 Y131.502 E.3916
G1 X139.85 Y132.174 E.02227
G1 X123.826 Y116.15 E.75169
G1 X124.498 Y116.15 E.02227
G1 X116.15 Y124.498 E.3916
G1 X116.15 Y126.126 E.05401
; CHANGE_LAYER
; Z_HEIGHT: 3.2
; LAYER_HEIGHT: 0.2
; WIPE_START
G1 F16200
G1 X116.15 Y124.498 E-.61876
G1 X116.413 Y124.235 E-.14124
; WIPE_END
G1 E-.04 F1800
; layer num/total_layer_count: 16/128
; update layer progress
M73 L16
M991 S0 P15 ;notify layer change
; OBJECT_ID: 174
M204 S10000
G17
G3 Z3.4 I-.678 J1.01 P1  F42000
G1 X140.198 Y140.198 Z3.4
G1 Z3.2
G1 E.8 F1800
; FEATURE: Inner wall
G1 F4294
M204 S6000
G1 X115.802 Y140.198 E.80926
G1 X115.802 Y115.802 E.80926
G1 X140.198 Y115.802 E.80926
G1 X140.198 Y140.138 E.80727
M204 S10000
G1 X140.59 Y140.59 F42000
; FEATURE: Outer wall
; LINE_WIDTH: 0.42
G1 F4294
M204 S5000
G1 X115.41 Y140.59 E.77371
G1 X115.41 Y115.41 E.77371
G1 X140.59 Y115.41 E.77371
G1 X140.59 Y140.53 E.77187
; WIPE_START
G1 F12000
M204 S6000
G1 X138.59 Y140.535 E-.76
; WIPE_END
G1 E-.04 F1800
M204 S10000
G17
G3 Z3.6 I1.217 J0 P1  F42000
;===================== date: 20250206 =====================

; don't support timelapse gcode in spiral_mode and by object sequence for I3 structure printer
; SKIPPABLE_START
; SKIPTYPE: timelapse
M622.1 S1 ; for prev firmware, default turned on
M1002 judge_flag timelapse_record_flag
M622 J1
G92 E0
G1 Z3.6
G1 X0 Y128 F18000 ; move to safe pos
G1 X-48.2 F3000 ; move to safe pos
M400
M1004 S5 P1  ; external shutter
M400 P300
M971 S11 C11 O0
G92 E0
G1 X0 F18000
M623

; SKIPTYPE: head_wrap_detect
M622.1 S1
M1002 judge_flag g39_3rd_layer_detect_flag
M622 J1
    ; enable nozzle clog detect at 3rd layer
    


    M622.1 S1
    M1002 judge_flag g39_detection_flag
    M622 J1
      
        M622.1 S0
        M1002 judge_flag g39_mass_exceed_flag
        M622 J1
        
            G392 S0
            M400
            G90
            M83
            M204 S5000
            G0 Z3.6 F4000
            G39.3 S1
            G0 Z3.6 F4000
            G392 S0
          
        M623
    
    M623
M623
; SKIPPABLE_END


G1 X137.55 Y139.85 F42000
G1 Z3.2
G1 E.8 F1800
; FEATURE: Sparse infill
; LINE_WIDTH: 0.45
G1 F4294
M204 S6000
G1 X139.178 Y139.85 E.05401
G1 X139.85 Y139.178 E.0315
G1 X139.85 Y139.85 E.02227
G1 X116.15 Y116.15 E1.11179
G1 X116.15 Y116.822 E.02227
G1 X116.822 Y116.15 E.0315
G1 X118.45 Y116.15 E.05401
M204 S10000
G1 X116.15 Y126.126 F42000
G1 F4294
M204 S6000
G1 X116.15 Y124.498 E.05401
G1 X124.498 Y116.15 E.3916
G1 X123.826 Y116.15 E.02227
G1 X139.85 Y132.174 E.75169
G1 X139.85 Y131.502 E.02227
G1 X131.502 Y139.85 E.3916
G1 X132.174 Y139.85 E.02227
G1 X116.15 Y123.826 E.75169
G1 X116.15 Y122.198 E.05401
M204 S10000
M73 P33 R18
G1 X126.126 Y139.85 F42000
G1 F4294
M204 S6000
G1 X124.498 Y139.85 E.05401
G1 X116.15 Y131.502 E.3916
G1 X116.15 Y132.174 E.02227
G1 X132.174 Y116.15 E.75169
G1 X131.502 Y116.15 E.02227
G1 X139.85 Y124.498 E.3916
G1 X139.85 Y123.826 E.02227
G1 X123.826 Y139.85 E.75169
G1 X122.198 Y139.85 E.05401
M204 S10000
G1 X139.85 Y118.45 F42000
G1 F4294
M204 S6000
G1 X139.85 Y116.822 E.05401
G1 X139.178 Y116.15 E.0315
G1 X139.85 Y116.15 E.02227
G1 X116.15 Y139.85 E1.11179
G1 X116.822 Y139.85 E.02227
G1 X116.15 Y139.178 E.0315
G1 X116.15 Y137.55 E.05401
; CHANGE_LAYER
; Z_HEIGHT: 3.4
; LAYER_HEIGHT: 0.2
; WIPE_START
G1 F16200
G1 X116.15 Y139.178 E-.61876
G1 X116.413 Y139.441 E-.14124
; WIPE_END
G1 E-.04 F1800
; layer num/total_layer_count: 17/128
; update layer progress
M73 L17
M991 S0 P16 ;notify layer change
; OBJECT_ID: 174
M204 S10000
G17
G3 Z3.6 I-.039 J1.216 P1  F42000
G1 X140.198 Y140.198 Z3.6
G1 Z3.4
G1 E.8 F1800
; FEATURE: Inner wall
G1 F4275
M204 S6000
G1 X115.802 Y140.198 E.80926
G1 X115.802 Y115.802 E.80926
G1 X140.198 Y115.802 E.80926
G1 X140.198 Y140.138 E.80727
M204 S10000
G1 X140.59 Y140.59 F42000
; FEATURE: Outer wall
; LINE_WIDTH: 0.42
G1 F4275
M204 S5000
G1 X115.41 Y140.59 E.77371
G1 X115.41 Y115.41 E.77371
G1 X140.59 Y115.41 E.77371
G1 X140.59 Y140.53 E.77187
; WIPE_START
G1 F12000
M204 S6000
G1 X138.59 Y140.535 E-.76
; WIPE_END
G1 E-.04 F1800
M204 S10000
G17
G3 Z3.8 I1.217 J0 P1  F42000
;===================== date: 20250206 =====================

; don't support timelapse gcode in spiral_mode and by object sequence for I3 structure printer
; SKIPPABLE_START
; SKIPTYPE: timelapse
M622.1 S1 ; for prev firmware, default turned on
M1002 judge_flag timelapse_record_flag
M622 J1
G92 E0
G1 Z3.8
G1 X0 Y128 F18000 ; move to safe pos
G1 X-48.2 F3000 ; move to safe pos
M400
M1004 S5 P1  ; external shutter
M400 P300
M971 S11 C11 O0
G92 E0
G1 X0 F18000
M623

; SKIPTYPE: head_wrap_detect
M622.1 S1
M1002 judge_flag g39_3rd_layer_detect_flag
M622 J1
    ; enable nozzle clog detect at 3rd layer
    


    M622.1 S1
    M1002 judge_flag g39_detection_flag
    M622 J1
      
        M622.1 S0
        M1002 judge_flag g39_mass_exceed_flag
        M622 J1
        
            G392 S0
            M400
            G90
            M83
            M204 S5000
            G0 Z3.8 F4000
            G39.3 S1
            G0 Z3.8 F4000
            G392 S0
          
        M623
    
    M623
M623
; SKIPPABLE_END


G1 X122.198 Y139.85 F42000
G1 Z3.4
G1 E.8 F1800
; FEATURE: Sparse infill
; LINE_WIDTH: 0.45
G1 F4275
M204 S6000
G1 X123.826 Y139.85 E.05401
G1 X139.85 Y123.826 E.75169
G1 X139.85 Y124.498 E.02227
G1 X131.502 Y116.15 E.3916
G1 X132.174 Y116.15 E.02227
G1 X116.15 Y132.174 E.75169
G1 X116.15 Y131.502 E.02227
G1 X124.498 Y139.85 E.3916
G1 X126.126 Y139.85 E.05401
M204 S10000
G1 X116.15 Y137.55 F42000
G1 F4275
M204 S6000
G1 X116.15 Y139.178 E.05401
G1 X116.822 Y139.85 E.0315
G1 X116.15 Y139.85 E.02227
G1 X139.85 Y116.15 E1.11179
G1 X139.178 Y116.15 E.02227
G1 X139.85 Y116.822 E.0315
G1 X139.85 Y118.45 E.05401
M204 S10000
G1 X118.45 Y116.15 F42000
G1 F4275
M204 S6000
G1 X116.822 Y116.15 E.05401
G1 X116.15 Y116.822 E.0315
G1 X116.15 Y116.15 E.02227
G1 X139.85 Y139.85 E1.11179
G1 X139.85 Y139.178 E.02227
G1 X139.178 Y139.85 E.0315
G1 X137.55 Y139.85 E.05401
M204 S10000
G1 X116.15 Y122.198 F42000
G1 F4275
M204 S6000
G1 X116.15 Y123.826 E.05401
G1 X132.174 Y139.85 E.75169
G1 X131.502 Y139.85 E.02227
G1 X139.85 Y131.502 E.3916
G1 X139.85 Y132.174 E.02227
G1 X123.826 Y116.15 E.75169
G1 X124.498 Y116.15 E.02227
G1 X116.15 Y124.498 E.3916
G1 X116.15 Y126.126 E.05401
; CHANGE_LAYER
; Z_HEIGHT: 3.6
; LAYER_HEIGHT: 0.2
; WIPE_START
G1 F16200
G1 X116.15 Y124.498 E-.61876
G1 X116.413 Y124.235 E-.14124
; WIPE_END
G1 E-.04 F1800
; layer num/total_layer_count: 18/128
; update layer progress
M73 L18
M991 S0 P17 ;notify layer change
; OBJECT_ID: 174
M204 S10000
G17
G3 Z3.8 I-.678 J1.01 P1  F42000
G1 X140.198 Y140.198 Z3.8
G1 Z3.6
G1 E.8 F1800
; FEATURE: Inner wall
G1 F4294
M204 S6000
G1 X115.802 Y140.198 E.80926
G1 X115.802 Y115.802 E.80926
G1 X140.198 Y115.802 E.80926
G1 X140.198 Y140.138 E.80727
M204 S10000
G1 X140.59 Y140.59 F42000
; FEATURE: Outer wall
; LINE_WIDTH: 0.42
G1 F4294
M204 S5000
G1 X115.41 Y140.59 E.77371
G1 X115.41 Y115.41 E.77371
G1 X140.59 Y115.41 E.77371
G1 X140.59 Y140.53 E.77187
; WIPE_START
G1 F12000
M204 S6000
G1 X138.59 Y140.535 E-.76
; WIPE_END
G1 E-.04 F1800
M204 S10000
G17
G3 Z4 I1.217 J0 P1  F42000
;===================== date: 20250206 =====================

; don't support timelapse gcode in spiral_mode and by object sequence for I3 structure printer
; SKIPPABLE_START
; SKIPTYPE: timelapse
M622.1 S1 ; for prev firmware, default turned on
M1002 judge_flag timelapse_record_flag
M622 J1
G92 E0
G1 Z4
G1 X0 Y128 F18000 ; move to safe pos
G1 X-48.2 F3000 ; move to safe pos
M400
M1004 S5 P1  ; external shutter
M400 P300
M971 S11 C11 O0
G92 E0
G1 X0 F18000
M623

; SKIPTYPE: head_wrap_detect
M622.1 S1
M1002 judge_flag g39_3rd_layer_detect_flag
M622 J1
    ; enable nozzle clog detect at 3rd layer
    


    M622.1 S1
    M1002 judge_flag g39_detection_flag
    M622 J1
      
        M622.1 S0
        M1002 judge_flag g39_mass_exceed_flag
        M622 J1
        
            G392 S0
            M400
            G90
            M83
            M204 S5000
            G0 Z4 F4000
            G39.3 S1
            G0 Z4 F4000
            G392 S0
          
        M623
    
    M623
M623
; SKIPPABLE_END


G1 X137.55 Y139.85 F42000
G1 Z3.6
G1 E.8 F1800
; FEATURE: Sparse infill
; LINE_WIDTH: 0.45
G1 F4294
M204 S6000
G1 X139.178 Y139.85 E.05401
G1 X139.85 Y139.178 E.0315
M73 P34 R18
G1 X139.85 Y139.85 E.02227
G1 X116.15 Y116.15 E1.11179
G1 X116.15 Y116.822 E.02227
G1 X116.822 Y116.15 E.0315
G1 X118.45 Y116.15 E.05401
M204 S10000
G1 X116.15 Y126.126 F42000
G1 F4294
M204 S6000
G1 X116.15 Y124.498 E.05401
G1 X124.498 Y116.15 E.3916
G1 X123.826 Y116.15 E.02227
G1 X139.85 Y132.174 E.75169
G1 X139.85 Y131.502 E.02227
G1 X131.502 Y139.85 E.3916
G1 X132.174 Y139.85 E.02227
G1 X116.15 Y123.826 E.75169
G1 X116.15 Y122.198 E.05401
M204 S10000
G1 X126.126 Y139.85 F42000
G1 F4294
M204 S6000
G1 X124.498 Y139.85 E.05401
G1 X116.15 Y131.502 E.3916
G1 X116.15 Y132.174 E.02227
G1 X132.174 Y116.15 E.75169
G1 X131.502 Y116.15 E.02227
G1 X139.85 Y124.498 E.3916
G1 X139.85 Y123.826 E.02227
G1 X123.826 Y139.85 E.75169
G1 X122.198 Y139.85 E.05401
M204 S10000
G1 X139.85 Y118.45 F42000
G1 F4294
M204 S6000
G1 X139.85 Y116.822 E.05401
G1 X139.178 Y116.15 E.0315
G1 X139.85 Y116.15 E.02227
G1 X116.15 Y139.85 E1.11179
G1 X116.822 Y139.85 E.02227
G1 X116.15 Y139.178 E.0315
G1 X116.15 Y137.55 E.05401
; CHANGE_LAYER
; Z_HEIGHT: 3.8
; LAYER_HEIGHT: 0.2
; WIPE_START
G1 F16200
G1 X116.15 Y139.178 E-.61876
G1 X116.413 Y139.441 E-.14124
; WIPE_END
G1 E-.04 F1800
; layer num/total_layer_count: 19/128
; update layer progress
M73 L19
M991 S0 P18 ;notify layer change
; OBJECT_ID: 174
M204 S10000
G17
G3 Z4 I-.039 J1.216 P1  F42000
G1 X140.198 Y140.198 Z4
G1 Z3.8
G1 E.8 F1800
; FEATURE: Inner wall
G1 F4275
M204 S6000
G1 X115.802 Y140.198 E.80926
G1 X115.802 Y115.802 E.80926
G1 X140.198 Y115.802 E.80926
G1 X140.198 Y140.138 E.80727
M204 S10000
G1 X140.59 Y140.59 F42000
; FEATURE: Outer wall
; LINE_WIDTH: 0.42
G1 F4275
M204 S5000
G1 X115.41 Y140.59 E.77371
G1 X115.41 Y115.41 E.77371
G1 X140.59 Y115.41 E.77371
G1 X140.59 Y140.53 E.77187
; WIPE_START
G1 F12000
M204 S6000
G1 X138.59 Y140.535 E-.76
; WIPE_END
G1 E-.04 F1800
M204 S10000
G17
G3 Z4.2 I1.217 J0 P1  F42000
;===================== date: 20250206 =====================

; don't support timelapse gcode in spiral_mode and by object sequence for I3 structure printer
; SKIPPABLE_START
; SKIPTYPE: timelapse
M622.1 S1 ; for prev firmware, default turned on
M1002 judge_flag timelapse_record_flag
M622 J1
G92 E0
G1 Z4.2
G1 X0 Y128 F18000 ; move to safe pos
G1 X-48.2 F3000 ; move to safe pos
M400
M1004 S5 P1  ; external shutter
M400 P300
M971 S11 C11 O0
G92 E0
G1 X0 F18000
M623

; SKIPTYPE: head_wrap_detect
M622.1 S1
M1002 judge_flag g39_3rd_layer_detect_flag
M622 J1
    ; enable nozzle clog detect at 3rd layer
    


    M622.1 S1
    M1002 judge_flag g39_detection_flag
    M622 J1
      
        M622.1 S0
        M1002 judge_flag g39_mass_exceed_flag
        M622 J1
        
            G392 S0
            M400
            G90
            M83
            M204 S5000
            G0 Z4.2 F4000
            G39.3 S1
            G0 Z4.2 F4000
            G392 S0
          
        M623
    
    M623
M623
; SKIPPABLE_END


G1 X122.198 Y139.85 F42000
G1 Z3.8
G1 E.8 F1800
; FEATURE: Sparse infill
; LINE_WIDTH: 0.45
G1 F4275
M204 S6000
G1 X123.826 Y139.85 E.05401
G1 X139.85 Y123.826 E.75169
G1 X139.85 Y124.498 E.02227
G1 X131.502 Y116.15 E.3916
G1 X132.174 Y116.15 E.02227
G1 X116.15 Y132.174 E.75169
G1 X116.15 Y131.502 E.02227
G1 X124.498 Y139.85 E.3916
G1 X126.126 Y139.85 E.05401
M204 S10000
G1 X116.15 Y137.55 F42000
G1 F4275
M204 S6000
G1 X116.15 Y139.178 E.05401
G1 X116.822 Y139.85 E.0315
G1 X116.15 Y139.85 E.02227
G1 X139.85 Y116.15 E1.11179
G1 X139.178 Y116.15 E.02227
G1 X139.85 Y116.822 E.0315
G1 X139.85 Y118.45 E.05401
M204 S10000
G1 X118.45 Y116.15 F42000
G1 F4275
M204 S6000
G1 X116.822 Y116.15 E.05401
G1 X116.15 Y116.822 E.0315
G1 X116.15 Y116.15 E.02227
G1 X139.85 Y139.85 E1.11179
G1 X139.85 Y139.178 E.02227
G1 X139.178 Y139.85 E.0315
G1 X137.55 Y139.85 E.05401
M204 S10000
G1 X116.15 Y122.198 F42000
G1 F4275
M204 S6000
G1 X116.15 Y123.826 E.05401
G1 X132.174 Y139.85 E.75169
G1 X131.502 Y139.85 E.02227
G1 X139.85 Y131.502 E.3916
G1 X139.85 Y132.174 E.02227
G1 X123.826 Y116.15 E.75169
G1 X124.498 Y116.15 E.02227
G1 X116.15 Y124.498 E.3916
G1 X116.15 Y126.126 E.05401
; CHANGE_LAYER
; Z_HEIGHT: 4
; LAYER_HEIGHT: 0.2
; WIPE_START
G1 F16200
G1 X116.15 Y124.498 E-.61876
G1 X116.413 Y124.235 E-.14124
; WIPE_END
G1 E-.04 F1800
; layer num/total_layer_count: 20/128
; update layer progress
M73 L20
M991 S0 P19 ;notify layer change
; OBJECT_ID: 174
M204 S10000
G17
G3 Z4.2 I-.678 J1.01 P1  F42000
G1 X140.198 Y140.198 Z4.2
G1 Z4
G1 E.8 F1800
; FEATURE: Inner wall
G1 F4294
M204 S6000
G1 X115.802 Y140.198 E.80926
G1 X115.802 Y115.802 E.80926
G1 X140.198 Y115.802 E.80926
G1 X140.198 Y140.138 E.80727
M204 S10000
G1 X140.59 Y140.59 F42000
; FEATURE: Outer wall
; LINE_WIDTH: 0.42
G1 F4294
M204 S5000
G1 X115.41 Y140.59 E.77371
M73 P35 R18
G1 X115.41 Y115.41 E.77371
G1 X140.59 Y115.41 E.77371
G1 X140.59 Y140.53 E.77187
; WIPE_START
G1 F12000
M204 S6000
G1 X138.59 Y140.535 E-.76
; WIPE_END
G1 E-.04 F1800
M204 S10000
G17
G3 Z4.4 I1.217 J0 P1  F42000
;===================== date: 20250206 =====================

; don't support timelapse gcode in spiral_mode and by object sequence for I3 structure printer
; SKIPPABLE_START
; SKIPTYPE: timelapse
M622.1 S1 ; for prev firmware, default turned on
M1002 judge_flag timelapse_record_flag
M622 J1
G92 E0
G1 Z4.4
G1 X0 Y128 F18000 ; move to safe pos
G1 X-48.2 F3000 ; move to safe pos
M400
M1004 S5 P1  ; external shutter
M400 P300
M971 S11 C11 O0
G92 E0
G1 X0 F18000
M623

; SKIPTYPE: head_wrap_detect
M622.1 S1
M1002 judge_flag g39_3rd_layer_detect_flag
M622 J1
    ; enable nozzle clog detect at 3rd layer
    


    M622.1 S1
    M1002 judge_flag g39_detection_flag
    M622 J1
      
        M622.1 S0
        M1002 judge_flag g39_mass_exceed_flag
        M622 J1
        
            G392 S0
            M400
            G90
            M83
            M204 S5000
            G0 Z4.4 F4000
            G39.3 S1
            G0 Z4.4 F4000
            G392 S0
          
        M623
    
    M623
M623
; SKIPPABLE_END


G1 X137.55 Y139.85 F42000
G1 Z4
G1 E.8 F1800
; FEATURE: Sparse infill
; LINE_WIDTH: 0.45
G1 F4294
M204 S6000
G1 X139.178 Y139.85 E.05401
G1 X139.85 Y139.178 E.0315
G1 X139.85 Y139.85 E.02227
G1 X116.15 Y116.15 E1.11179
G1 X116.15 Y116.822 E.02227
G1 X116.822 Y116.15 E.0315
G1 X118.45 Y116.15 E.05401
M204 S10000
G1 X116.15 Y126.126 F42000
G1 F4294
M204 S6000
G1 X116.15 Y124.498 E.05401
G1 X124.498 Y116.15 E.3916
G1 X123.826 Y116.15 E.02227
G1 X139.85 Y132.174 E.75169
G1 X139.85 Y131.502 E.02227
G1 X131.502 Y139.85 E.3916
G1 X132.174 Y139.85 E.02227
G1 X116.15 Y123.826 E.75169
G1 X116.15 Y122.198 E.05401
M204 S10000
G1 X126.126 Y139.85 F42000
G1 F4294
M204 S6000
G1 X124.498 Y139.85 E.05401
M73 P35 R17
G1 X116.15 Y131.502 E.3916
G1 X116.15 Y132.174 E.02227
G1 X132.174 Y116.15 E.75169
G1 X131.502 Y116.15 E.02227
G1 X139.85 Y124.498 E.3916
G1 X139.85 Y123.826 E.02227
G1 X123.826 Y139.85 E.75169
G1 X122.198 Y139.85 E.05401
M204 S10000
G1 X139.85 Y118.45 F42000
G1 F4294
M204 S6000
G1 X139.85 Y116.822 E.05401
G1 X139.178 Y116.15 E.0315
G1 X139.85 Y116.15 E.02227
G1 X116.15 Y139.85 E1.11179
G1 X116.822 Y139.85 E.02227
G1 X116.15 Y139.178 E.0315
G1 X116.15 Y137.55 E.05401
; CHANGE_LAYER
; Z_HEIGHT: 4.2
; LAYER_HEIGHT: 0.2
; WIPE_START
G1 F16200
G1 X116.15 Y139.178 E-.61876
G1 X116.413 Y139.441 E-.14124
; WIPE_END
G1 E-.04 F1800
; layer num/total_layer_count: 21/128
; update layer progress
M73 L21
M991 S0 P20 ;notify layer change
; OBJECT_ID: 174
M204 S10000
G17
G3 Z4.4 I-.039 J1.216 P1  F42000
G1 X140.198 Y140.198 Z4.4
G1 Z4.2
G1 E.8 F1800
; FEATURE: Inner wall
G1 F4275
M204 S6000
G1 X115.802 Y140.198 E.80926
G1 X115.802 Y115.802 E.80926
G1 X140.198 Y115.802 E.80926
G1 X140.198 Y140.138 E.80727
M204 S10000
G1 X140.59 Y140.59 F42000
; FEATURE: Outer wall
; LINE_WIDTH: 0.42
G1 F4275
M204 S5000
G1 X115.41 Y140.59 E.77371
G1 X115.41 Y115.41 E.77371
G1 X140.59 Y115.41 E.77371
G1 X140.59 Y140.53 E.77187
; WIPE_START
G1 F12000
M204 S6000
G1 X138.59 Y140.535 E-.76
; WIPE_END
G1 E-.04 F1800
M204 S10000
G17
G3 Z4.6 I1.217 J0 P1  F42000
;===================== date: 20250206 =====================

; don't support timelapse gcode in spiral_mode and by object sequence for I3 structure printer
; SKIPPABLE_START
; SKIPTYPE: timelapse
M622.1 S1 ; for prev firmware, default turned on
M1002 judge_flag timelapse_record_flag
M622 J1
G92 E0
G1 Z4.6
G1 X0 Y128 F18000 ; move to safe pos
G1 X-48.2 F3000 ; move to safe pos
M400
M1004 S5 P1  ; external shutter
M400 P300
M971 S11 C11 O0
G92 E0
G1 X0 F18000
M623

; SKIPTYPE: head_wrap_detect
M622.1 S1
M1002 judge_flag g39_3rd_layer_detect_flag
M622 J1
    ; enable nozzle clog detect at 3rd layer
    


    M622.1 S1
    M1002 judge_flag g39_detection_flag
    M622 J1
      
        M622.1 S0
        M1002 judge_flag g39_mass_exceed_flag
        M622 J1
        
            G392 S0
            M400
            G90
            M83
            M204 S5000
            G0 Z4.6 F4000
            G39.3 S1
            G0 Z4.6 F4000
            G392 S0
          
        M623
    
    M623
M623
; SKIPPABLE_END


G1 X122.198 Y139.85 F42000
G1 Z4.2
G1 E.8 F1800
; FEATURE: Sparse infill
; LINE_WIDTH: 0.45
G1 F4275
M204 S6000
G1 X123.826 Y139.85 E.05401
G1 X139.85 Y123.826 E.75169
G1 X139.85 Y124.498 E.02227
G1 X131.502 Y116.15 E.3916
G1 X132.174 Y116.15 E.02227
G1 X116.15 Y132.174 E.75169
G1 X116.15 Y131.502 E.02227
G1 X124.498 Y139.85 E.3916
G1 X126.126 Y139.85 E.05401
M204 S10000
G1 X116.15 Y137.55 F42000
G1 F4275
M204 S6000
G1 X116.15 Y139.178 E.05401
G1 X116.822 Y139.85 E.0315
G1 X116.15 Y139.85 E.02227
G1 X139.85 Y116.15 E1.11179
G1 X139.178 Y116.15 E.02227
G1 X139.85 Y116.822 E.0315
G1 X139.85 Y118.45 E.05401
M204 S10000
G1 X118.45 Y116.15 F42000
G1 F4275
M204 S6000
G1 X116.822 Y116.15 E.05401
G1 X116.15 Y116.822 E.0315
G1 X116.15 Y116.15 E.02227
G1 X139.85 Y139.85 E1.11179
G1 X139.85 Y139.178 E.02227
G1 X139.178 Y139.85 E.0315
G1 X137.55 Y139.85 E.05401
M204 S10000
G1 X116.15 Y122.198 F42000
G1 F4275
M204 S6000
G1 X116.15 Y123.826 E.05401
G1 X132.174 Y139.85 E.75169
G1 X131.502 Y139.85 E.02227
G1 X139.85 Y131.502 E.3916
G1 X139.85 Y132.174 E.02227
G1 X123.826 Y116.15 E.75169
G1 X124.498 Y116.15 E.02227
G1 X116.15 Y124.498 E.3916
G1 X116.15 Y126.126 E.05401
; CHANGE_LAYER
; Z_HEIGHT: 4.4
; LAYER_HEIGHT: 0.2
; WIPE_START
G1 F16200
G1 X116.15 Y124.498 E-.61876
G1 X116.413 Y124.235 E-.14124
; WIPE_END
G1 E-.04 F1800
; layer num/total_layer_count: 22/128
; update layer progress
M73 L22
M991 S0 P21 ;notify layer change
; OBJECT_ID: 174
M204 S10000
G17
G3 Z4.6 I-.678 J1.01 P1  F42000
G1 X140.198 Y140.198 Z4.6
G1 Z4.4
G1 E.8 F1800
; FEATURE: Inner wall
G1 F4294
M204 S6000
G1 X115.802 Y140.198 E.80926
G1 X115.802 Y115.802 E.80926
G1 X140.198 Y115.802 E.80926
G1 X140.198 Y140.138 E.80727
M204 S10000
G1 X140.59 Y140.59 F42000
; FEATURE: Outer wall
; LINE_WIDTH: 0.42
G1 F4294
M204 S5000
G1 X115.41 Y140.59 E.77371
M73 P36 R17
G1 X115.41 Y115.41 E.77371
G1 X140.59 Y115.41 E.77371
G1 X140.59 Y140.53 E.77187
; WIPE_START
G1 F12000
M204 S6000
G1 X138.59 Y140.535 E-.76
; WIPE_END
G1 E-.04 F1800
M204 S10000
G17
G3 Z4.8 I1.217 J0 P1  F42000
;===================== date: 20250206 =====================

; don't support timelapse gcode in spiral_mode and by object sequence for I3 structure printer
; SKIPPABLE_START
; SKIPTYPE: timelapse
M622.1 S1 ; for prev firmware, default turned on
M1002 judge_flag timelapse_record_flag
M622 J1
G92 E0
G1 Z4.8
G1 X0 Y128 F18000 ; move to safe pos
G1 X-48.2 F3000 ; move to safe pos
M400
M1004 S5 P1  ; external shutter
M400 P300
M971 S11 C11 O0
G92 E0
G1 X0 F18000
M623

; SKIPTYPE: head_wrap_detect
M622.1 S1
M1002 judge_flag g39_3rd_layer_detect_flag
M622 J1
    ; enable nozzle clog detect at 3rd layer
    


    M622.1 S1
    M1002 judge_flag g39_detection_flag
    M622 J1
      
        M622.1 S0
        M1002 judge_flag g39_mass_exceed_flag
        M622 J1
        
            G392 S0
            M400
            G90
            M83
            M204 S5000
            G0 Z4.8 F4000
            G39.3 S1
            G0 Z4.8 F4000
            G392 S0
          
        M623
    
    M623
M623
; SKIPPABLE_END


G1 X137.55 Y139.85 F42000
G1 Z4.4
G1 E.8 F1800
; FEATURE: Sparse infill
; LINE_WIDTH: 0.45
G1 F4294
M204 S6000
G1 X139.178 Y139.85 E.05401
G1 X139.85 Y139.178 E.0315
G1 X139.85 Y139.85 E.02227
G1 X116.15 Y116.15 E1.11179
G1 X116.15 Y116.822 E.02227
G1 X116.822 Y116.15 E.0315
G1 X118.45 Y116.15 E.05401
M204 S10000
G1 X116.15 Y126.126 F42000
G1 F4294
M204 S6000
G1 X116.15 Y124.498 E.05401
G1 X124.498 Y116.15 E.3916
G1 X123.826 Y116.15 E.02227
G1 X139.85 Y132.174 E.75169
G1 X139.85 Y131.502 E.02227
G1 X131.502 Y139.85 E.3916
G1 X132.174 Y139.85 E.02227
G1 X116.15 Y123.826 E.75169
G1 X116.15 Y122.198 E.05401
M204 S10000
G1 X126.126 Y139.85 F42000
G1 F4294
M204 S6000
G1 X124.498 Y139.85 E.05401
G1 X116.15 Y131.502 E.3916
G1 X116.15 Y132.174 E.02227
G1 X132.174 Y116.15 E.75169
G1 X131.502 Y116.15 E.02227
G1 X139.85 Y124.498 E.3916
G1 X139.85 Y123.826 E.02227
G1 X123.826 Y139.85 E.75169
G1 X122.198 Y139.85 E.05401
M204 S10000
G1 X139.85 Y118.45 F42000
G1 F4294
M204 S6000
G1 X139.85 Y116.822 E.05401
G1 X139.178 Y116.15 E.0315
G1 X139.85 Y116.15 E.02227
G1 X116.15 Y139.85 E1.11179
G1 X116.822 Y139.85 E.02227
G1 X116.15 Y139.178 E.0315
G1 X116.15 Y137.55 E.05401
; CHANGE_LAYER
; Z_HEIGHT: 4.6
; LAYER_HEIGHT: 0.2
; WIPE_START
G1 F16200
G1 X116.15 Y139.178 E-.61876
G1 X116.413 Y139.441 E-.14124
; WIPE_END
G1 E-.04 F1800
; layer num/total_layer_count: 23/128
; update layer progress
M73 L23
M991 S0 P22 ;notify layer change
; OBJECT_ID: 174
M204 S10000
G17
G3 Z4.8 I-.039 J1.216 P1  F42000
G1 X140.198 Y140.198 Z4.8
G1 Z4.6
G1 E.8 F1800
; FEATURE: Inner wall
G1 F4275
M204 S6000
G1 X115.802 Y140.198 E.80926
G1 X115.802 Y115.802 E.80926
G1 X140.198 Y115.802 E.80926
G1 X140.198 Y140.138 E.80727
M204 S10000
G1 X140.59 Y140.59 F42000
; FEATURE: Outer wall
; LINE_WIDTH: 0.42
G1 F4275
M204 S5000
G1 X115.41 Y140.59 E.77371
G1 X115.41 Y115.41 E.77371
G1 X140.59 Y115.41 E.77371
G1 X140.59 Y140.53 E.77187
; WIPE_START
G1 F12000
M204 S6000
G1 X138.59 Y140.535 E-.76
; WIPE_END
G1 E-.04 F1800
M204 S10000
G17
G3 Z5 I1.217 J0 P1  F42000
;===================== date: 20250206 =====================

; don't support timelapse gcode in spiral_mode and by object sequence for I3 structure printer
; SKIPPABLE_START
; SKIPTYPE: timelapse
M622.1 S1 ; for prev firmware, default turned on
M1002 judge_flag timelapse_record_flag
M622 J1
G92 E0
G1 Z5
G1 X0 Y128 F18000 ; move to safe pos
G1 X-48.2 F3000 ; move to safe pos
M400
M1004 S5 P1  ; external shutter
M400 P300
M971 S11 C11 O0
G92 E0
G1 X0 F18000
M623

; SKIPTYPE: head_wrap_detect
M622.1 S1
M1002 judge_flag g39_3rd_layer_detect_flag
M622 J1
    ; enable nozzle clog detect at 3rd layer
    


    M622.1 S1
    M1002 judge_flag g39_detection_flag
    M622 J1
      
        M622.1 S0
        M1002 judge_flag g39_mass_exceed_flag
        M622 J1
        
            G392 S0
            M400
            G90
            M83
            M204 S5000
            G0 Z5 F4000
            G39.3 S1
            G0 Z5 F4000
            G392 S0
          
        M623
    
    M623
M623
; SKIPPABLE_END


G1 X122.198 Y139.85 F42000
G1 Z4.6
G1 E.8 F1800
; FEATURE: Sparse infill
; LINE_WIDTH: 0.45
G1 F4275
M204 S6000
G1 X123.826 Y139.85 E.05401
G1 X139.85 Y123.826 E.75169
G1 X139.85 Y124.498 E.02227
G1 X131.502 Y116.15 E.3916
G1 X132.174 Y116.15 E.02227
G1 X116.15 Y132.174 E.75169
G1 X116.15 Y131.502 E.02227
G1 X124.498 Y139.85 E.3916
G1 X126.126 Y139.85 E.05401
M204 S10000
G1 X116.15 Y137.55 F42000
G1 F4275
M204 S6000
G1 X116.15 Y139.178 E.05401
G1 X116.822 Y139.85 E.0315
G1 X116.15 Y139.85 E.02227
G1 X139.85 Y116.15 E1.11179
G1 X139.178 Y116.15 E.02227
G1 X139.85 Y116.822 E.0315
G1 X139.85 Y118.45 E.05401
M204 S10000
G1 X118.45 Y116.15 F42000
G1 F4275
M204 S6000
G1 X116.822 Y116.15 E.05401
G1 X116.15 Y116.822 E.0315
G1 X116.15 Y116.15 E.02227
G1 X139.85 Y139.85 E1.11179
G1 X139.85 Y139.178 E.02227
G1 X139.178 Y139.85 E.0315
G1 X137.55 Y139.85 E.05401
M204 S10000
G1 X116.15 Y122.198 F42000
G1 F4275
M204 S6000
G1 X116.15 Y123.826 E.05401
G1 X132.174 Y139.85 E.75169
G1 X131.502 Y139.85 E.02227
G1 X139.85 Y131.502 E.3916
G1 X139.85 Y132.174 E.02227
G1 X123.826 Y116.15 E.75169
G1 X124.498 Y116.15 E.02227
G1 X116.15 Y124.498 E.3916
G1 X116.15 Y126.126 E.05401
; CHANGE_LAYER
; Z_HEIGHT: 4.8
; LAYER_HEIGHT: 0.2
; WIPE_START
G1 F16200
G1 X116.15 Y124.498 E-.61876
G1 X116.413 Y124.235 E-.14124
; WIPE_END
G1 E-.04 F1800
; layer num/total_layer_count: 24/128
; update layer progress
M73 L24
M991 S0 P23 ;notify layer change
; OBJECT_ID: 174
M204 S10000
G17
G3 Z5 I-.678 J1.01 P1  F42000
G1 X140.198 Y140.198 Z5
G1 Z4.8
G1 E.8 F1800
; FEATURE: Inner wall
G1 F4294
M204 S6000
M73 P37 R17
G1 X115.802 Y140.198 E.80926
G1 X115.802 Y115.802 E.80926
G1 X140.198 Y115.802 E.80926
G1 X140.198 Y140.138 E.80727
M204 S10000
G1 X140.59 Y140.59 F42000
; FEATURE: Outer wall
; LINE_WIDTH: 0.42
G1 F4294
M204 S5000
G1 X115.41 Y140.59 E.77371
G1 X115.41 Y115.41 E.77371
G1 X140.59 Y115.41 E.77371
G1 X140.59 Y140.53 E.77187
; WIPE_START
G1 F12000
M204 S6000
G1 X138.59 Y140.535 E-.76
; WIPE_END
G1 E-.04 F1800
M204 S10000
G17
G3 Z5.2 I1.217 J0 P1  F42000
;===================== date: 20250206 =====================

; don't support timelapse gcode in spiral_mode and by object sequence for I3 structure printer
; SKIPPABLE_START
; SKIPTYPE: timelapse
M622.1 S1 ; for prev firmware, default turned on
M1002 judge_flag timelapse_record_flag
M622 J1
G92 E0
G1 Z5.2
G1 X0 Y128 F18000 ; move to safe pos
G1 X-48.2 F3000 ; move to safe pos
M400
M1004 S5 P1  ; external shutter
M400 P300
M971 S11 C11 O0
G92 E0
G1 X0 F18000
M623

; SKIPTYPE: head_wrap_detect
M622.1 S1
M1002 judge_flag g39_3rd_layer_detect_flag
M622 J1
    ; enable nozzle clog detect at 3rd layer
    


    M622.1 S1
    M1002 judge_flag g39_detection_flag
    M622 J1
      
        M622.1 S0
        M1002 judge_flag g39_mass_exceed_flag
        M622 J1
        
            G392 S0
            M400
            G90
            M83
            M204 S5000
            G0 Z5.2 F4000
            G39.3 S1
            G0 Z5.2 F4000
            G392 S0
          
        M623
    
    M623
M623
; SKIPPABLE_END


G1 X137.55 Y139.85 F42000
G1 Z4.8
G1 E.8 F1800
; FEATURE: Sparse infill
; LINE_WIDTH: 0.45
G1 F4294
M204 S6000
G1 X139.178 Y139.85 E.05401
G1 X139.85 Y139.178 E.0315
G1 X139.85 Y139.85 E.02227
G1 X116.15 Y116.15 E1.11179
G1 X116.15 Y116.822 E.02227
G1 X116.822 Y116.15 E.0315
G1 X118.45 Y116.15 E.05401
M204 S10000
G1 X116.15 Y126.126 F42000
G1 F4294
M204 S6000
G1 X116.15 Y124.498 E.05401
G1 X124.498 Y116.15 E.3916
G1 X123.826 Y116.15 E.02227
G1 X139.85 Y132.174 E.75169
G1 X139.85 Y131.502 E.02227
G1 X131.502 Y139.85 E.3916
G1 X132.174 Y139.85 E.02227
G1 X116.15 Y123.826 E.75169
G1 X116.15 Y122.198 E.05401
M204 S10000
G1 X126.126 Y139.85 F42000
G1 F4294
M204 S6000
G1 X124.498 Y139.85 E.05401
G1 X116.15 Y131.502 E.3916
G1 X116.15 Y132.174 E.02227
G1 X132.174 Y116.15 E.75169
G1 X131.502 Y116.15 E.02227
G1 X139.85 Y124.498 E.3916
G1 X139.85 Y123.826 E.02227
G1 X123.826 Y139.85 E.75169
G1 X122.198 Y139.85 E.05401
M204 S10000
G1 X139.85 Y118.45 F42000
G1 F4294
M204 S6000
G1 X139.85 Y116.822 E.05401
G1 X139.178 Y116.15 E.0315
G1 X139.85 Y116.15 E.02227
G1 X116.15 Y139.85 E1.11179
G1 X116.822 Y139.85 E.02227
G1 X116.15 Y139.178 E.0315
G1 X116.15 Y137.55 E.05401
; CHANGE_LAYER
; Z_HEIGHT: 5
; LAYER_HEIGHT: 0.2
; WIPE_START
G1 F16200
G1 X116.15 Y139.178 E-.61876
G1 X116.413 Y139.441 E-.14124
; WIPE_END
G1 E-.04 F1800
; layer num/total_layer_count: 25/128
; update layer progress
M73 L25
M991 S0 P24 ;notify layer change
; OBJECT_ID: 174
M204 S10000
G17
G3 Z5.2 I-.039 J1.216 P1  F42000
G1 X140.198 Y140.198 Z5.2
G1 Z5
G1 E.8 F1800
; FEATURE: Inner wall
G1 F4275
M204 S6000
G1 X115.802 Y140.198 E.80926
G1 X115.802 Y115.802 E.80926
G1 X140.198 Y115.802 E.80926
G1 X140.198 Y140.138 E.80727
M204 S10000
G1 X140.59 Y140.59 F42000
; FEATURE: Outer wall
; LINE_WIDTH: 0.42
G1 F4275
M204 S5000
G1 X115.41 Y140.59 E.77371
G1 X115.41 Y115.41 E.77371
G1 X140.59 Y115.41 E.77371
G1 X140.59 Y140.53 E.77187
; WIPE_START
G1 F12000
M204 S6000
G1 X138.59 Y140.535 E-.76
; WIPE_END
G1 E-.04 F1800
M204 S10000
G17
G3 Z5.4 I1.217 J0 P1  F42000
;===================== date: 20250206 =====================

; don't support timelapse gcode in spiral_mode and by object sequence for I3 structure printer
; SKIPPABLE_START
; SKIPTYPE: timelapse
M622.1 S1 ; for prev firmware, default turned on
M1002 judge_flag timelapse_record_flag
M622 J1
G92 E0
G1 Z5.4
G1 X0 Y128 F18000 ; move to safe pos
G1 X-48.2 F3000 ; move to safe pos
M400
M1004 S5 P1  ; external shutter
M400 P300
M971 S11 C11 O0
G92 E0
G1 X0 F18000
M623

; SKIPTYPE: head_wrap_detect
M622.1 S1
M1002 judge_flag g39_3rd_layer_detect_flag
M622 J1
    ; enable nozzle clog detect at 3rd layer
    


    M622.1 S1
    M1002 judge_flag g39_detection_flag
    M622 J1
      
        M622.1 S0
        M1002 judge_flag g39_mass_exceed_flag
        M622 J1
        
            G392 S0
            M400
            G90
            M83
            M204 S5000
            G0 Z5.4 F4000
            G39.3 S1
            G0 Z5.4 F4000
            G392 S0
          
        M623
    
    M623
M623
; SKIPPABLE_END


G1 X122.198 Y139.85 F42000
G1 Z5
G1 E.8 F1800
; FEATURE: Sparse infill
; LINE_WIDTH: 0.45
G1 F4275
M204 S6000
G1 X123.826 Y139.85 E.05401
G1 X139.85 Y123.826 E.75169
G1 X139.85 Y124.498 E.02227
G1 X131.502 Y116.15 E.3916
G1 X132.174 Y116.15 E.02227
G1 X116.15 Y132.174 E.75169
G1 X116.15 Y131.502 E.02227
G1 X124.498 Y139.85 E.3916
G1 X126.126 Y139.85 E.05401
M204 S10000
G1 X116.15 Y137.55 F42000
G1 F4275
M204 S6000
G1 X116.15 Y139.178 E.05401
G1 X116.822 Y139.85 E.0315
G1 X116.15 Y139.85 E.02227
G1 X139.85 Y116.15 E1.11179
G1 X139.178 Y116.15 E.02227
G1 X139.85 Y116.822 E.0315
G1 X139.85 Y118.45 E.05401
M204 S10000
G1 X118.45 Y116.15 F42000
G1 F4275
M204 S6000
G1 X116.822 Y116.15 E.05401
G1 X116.15 Y116.822 E.0315
G1 X116.15 Y116.15 E.02227
G1 X139.85 Y139.85 E1.11179
G1 X139.85 Y139.178 E.02227
G1 X139.178 Y139.85 E.0315
G1 X137.55 Y139.85 E.05401
M204 S10000
G1 X116.15 Y122.198 F42000
G1 F4275
M204 S6000
G1 X116.15 Y123.826 E.05401
G1 X132.174 Y139.85 E.75169
M73 P38 R17
G1 X131.502 Y139.85 E.02227
G1 X139.85 Y131.502 E.3916
G1 X139.85 Y132.174 E.02227
G1 X123.826 Y116.15 E.75169
G1 X124.498 Y116.15 E.02227
G1 X116.15 Y124.498 E.3916
G1 X116.15 Y126.126 E.05401
; CHANGE_LAYER
; Z_HEIGHT: 5.2
; LAYER_HEIGHT: 0.2
; WIPE_START
G1 F16200
G1 X116.15 Y124.498 E-.61876
G1 X116.413 Y124.235 E-.14124
; WIPE_END
G1 E-.04 F1800
; layer num/total_layer_count: 26/128
; update layer progress
M73 L26
M991 S0 P25 ;notify layer change
; OBJECT_ID: 174
M204 S10000
G17
G3 Z5.4 I-.678 J1.01 P1  F42000
G1 X140.198 Y140.198 Z5.4
G1 Z5.2
G1 E.8 F1800
; FEATURE: Inner wall
G1 F4294
M204 S6000
G1 X115.802 Y140.198 E.80926
G1 X115.802 Y115.802 E.80926
G1 X140.198 Y115.802 E.80926
G1 X140.198 Y140.138 E.80727
M204 S10000
G1 X140.59 Y140.59 F42000
; FEATURE: Outer wall
; LINE_WIDTH: 0.42
G1 F4294
M204 S5000
G1 X115.41 Y140.59 E.77371
G1 X115.41 Y115.41 E.77371
G1 X140.59 Y115.41 E.77371
G1 X140.59 Y140.53 E.77187
; WIPE_START
G1 F12000
M204 S6000
G1 X138.59 Y140.535 E-.76
; WIPE_END
G1 E-.04 F1800
M204 S10000
G17
G3 Z5.6 I1.217 J0 P1  F42000
;===================== date: 20250206 =====================

; don't support timelapse gcode in spiral_mode and by object sequence for I3 structure printer
; SKIPPABLE_START
; SKIPTYPE: timelapse
M622.1 S1 ; for prev firmware, default turned on
M1002 judge_flag timelapse_record_flag
M622 J1
G92 E0
G1 Z5.6
G1 X0 Y128 F18000 ; move to safe pos
G1 X-48.2 F3000 ; move to safe pos
M400
M1004 S5 P1  ; external shutter
M400 P300
M971 S11 C11 O0
G92 E0
G1 X0 F18000
M623

; SKIPTYPE: head_wrap_detect
M622.1 S1
M1002 judge_flag g39_3rd_layer_detect_flag
M622 J1
    ; enable nozzle clog detect at 3rd layer
    


    M622.1 S1
    M1002 judge_flag g39_detection_flag
    M622 J1
      
        M622.1 S0
        M1002 judge_flag g39_mass_exceed_flag
        M622 J1
        
            G392 S0
            M400
            G90
            M83
            M204 S5000
            G0 Z5.6 F4000
            G39.3 S1
            G0 Z5.6 F4000
            G392 S0
          
        M623
    
    M623
M623
; SKIPPABLE_END


G1 X137.55 Y139.85 F42000
G1 Z5.2
G1 E.8 F1800
; FEATURE: Sparse infill
; LINE_WIDTH: 0.45
G1 F4294
M204 S6000
G1 X139.178 Y139.85 E.05401
